%
O10001
(Using high feed G1 F5000. instead of G0.)
(Machine)
(  vendor: HAAS)
(  model: VF-2)
(  description: Haas VF-2)
(T1 D=50. CR=0. - ZMIN=-1. - face mill)
(T2 D=18. CR=0. - ZMIN=-21. - flat end mill)
(T5 D=10. CR=0. - ZMIN=-21. - flat end mill)
(T6 D=3. CR=0. - ZMIN=-21. - flat end mill)
N10 G90 G94 G17
N15 G21
N20 G53 G0 Z0.

(Face1)
N25 T1 M6
N30 S5000 M3
N35 G17 G90 G94
N40 G54
N45 M8
N50 G1 X185.5 Y-58.887 F5000.
N55 G0 G43 Z15. H1
N60 T2
N65 G0 Z5.
N70 G1 Z-1. F333.33
N75 X183.01 F1000.
N80 X-25.01
N85 G2 Y-24.1 I0. J17.393
N90 G1 X183.01
N95 G0 Z15.
N100 M9
N105 M5
N110 G53 G0 Z0.

(2D Adaptive2)
N115 M1
N120 T2 M6
N125 S4800 M3
N130 G17 G90 G94
N135 G54
N140 M8
N145 G1 X-16.046 Y-81.986 F5000.
N150 G0 G43 Z15. H2
N155 T5
N160 G0 Z5.
N165 Z-16.15
N170 G1 Z-17.95 F1720.
N175 X-16.04 Y-81.982 Z-18.116
N180 X-16.02 Y-81.971 Z-18.281
N185 X-15.986 Y-81.953 Z-18.443
N190 X-15.94 Y-81.927 Z-18.6
N195 X-15.882 Y-81.894 Z-18.752
N200 X-15.811 Y-81.855 Z-18.898
N205 X-15.729 Y-81.809 Z-19.035
N210 X-15.636 Y-81.757 Z-19.163
N215 X-15.534 Y-81.7 Z-19.28
N220 X-15.422 Y-81.638 Z-19.386
N225 X-15.302 Y-81.571 Z-19.48
N230 X-15.175 Y-81.5 Z-19.561
N235 X-15.042 Y-81.426 Z-19.628
N240 X-14.905 Y-81.349 Z-19.681
N245 X-14.763 Y-81.271 Z-19.719
N250 X-14.619 Y-81.19 Z-19.742
N255 X-14.474 Y-81.11 Z-19.75
N260 G3 X-6.397 Y-75.385 I-22.38 J40.136
N265 G1 X-6.332 Y-75.322
N270 X-6.241 Y-75.203
N275 X-6.151 Y-75.083
N280 X-6.064 Y-74.961
N285 X-5.978 Y-74.838
N290 X-5.893 Y-74.714
N295 X-5.81 Y-74.589
N300 X-5.729 Y-74.463
N305 X-5.649 Y-74.336
N310 X-5.571 Y-74.208
N315 X-5.494 Y-74.079
N320 X-5.418 Y-73.95
N325 X-5.344 Y-73.82
N330 X-5.271 Y-73.688
N335 X-5.199 Y-73.557
N340 X-5.129 Y-73.424
N345 X-5.06 Y-73.291
N350 X-4.992 Y-73.157
N355 X-4.926 Y-73.023
N360 X-4.86 Y-72.888
N365 X-4.796 Y-72.752
N370 X-4.733 Y-72.616
N375 X-4.671 Y-72.479
N380 X-4.611 Y-72.342
N385 X-4.551 Y-72.205
N390 X-4.492 Y-72.067
N395 X-4.435 Y-71.928
N400 X-4.377 Y-71.787
N405 X-4.319 Y-71.642
N410 X-4.261 Y-71.493
N415 X-4.203 Y-71.341
N420 X-4.144 Y-71.184
N425 X-4.086 Y-71.023
N430 X-4.027 Y-70.858
N435 X-3.967 Y-70.688
N440 X-3.908 Y-70.514
N445 X-3.848 Y-70.335
N450 X-3.789 Y-70.15
N455 X-3.729 Y-69.96
N460 X-3.668 Y-69.765
N465 X-3.608 Y-69.564
N470 X-3.548 Y-69.356
N475 X-3.487 Y-69.142
N480 X-3.426 Y-68.921
N485 X-3.365 Y-68.694
N490 X-3.303 Y-68.458
N495 X-3.242 Y-68.215
N500 X-3.18 Y-67.963
N505 X-3.118 Y-67.702
N510 X-3.056 Y-67.431
N515 X-2.994 Y-67.151
N520 X-2.932 Y-66.859
N525 X-2.869 Y-66.556
N530 X-2.806 Y-66.241
N535 X-2.744 Y-65.912
N540 X-2.681 Y-65.569
N545 X-2.618 Y-65.21
N550 X-2.554 Y-64.834
N555 X-2.491 Y-64.44
N560 X-2.427 Y-64.026
N565 X-2.364 Y-63.589
N570 X-2.3 Y-63.128
N575 X-2.236 Y-62.639
N580 X-2.172 Y-62.12
N585 X-2.108 Y-61.567
N590 X-2.044 Y-60.974
N595 X-1.979 Y-60.338
N600 X-1.953 Y-60.058
N605 X-1.94 Y-59.646
N610 X-1.979 Y-59.235
N615 X-2.069 Y-58.833
N620 X-2.208 Y-58.445
N625 X-2.394 Y-58.077
N630 X-2.921 Y-57.182
N635 X-3.233 Y-56.642
N640 X-3.542 Y-56.103
N645 X-3.818 Y-55.563
N650 X-4.066 Y-55.023
N655 X-4.31 Y-54.483
N660 X-5.029 Y-52.864
N665 X-5.261 Y-52.324
N670 X-5.474 Y-51.784
N675 X-5.675 Y-51.245
N680 X-6.183 Y-49.625
N685 X-6.526 Y-48.53
N690 X-6.69 Y-48.006
N695 X-6.822 Y-47.466
N700 X-6.953 Y-46.926
N705 X-7.368 Y-44.767
N710 X-7.574 Y-43.688
N715 X-7.606 Y-43.495
N720 X-7.71 Y-42.608
N725 X-7.756 Y-42.068
N730 X-7.879 Y-40.449
N735 X-7.96 Y-39.37
N740 X-7.979 Y-38.83
N745 X-7.98 Y-38.29
N750 X-7.969 Y-37.75
N755 X-7.887 Y-35.591
N760 X-7.865 Y-35.051
N765 X-7.832 Y-34.512
N770 X-7.77 Y-33.972
N775 X-7.702 Y-33.432
N780 X-7.372 Y-31.273
N785 X-7.202 Y-30.193
N790 X-7.066 Y-29.6
N795 X-6.943 Y-29.114
N800 X-6.356 Y-26.955
N805 X-6.204 Y-26.415
N810 X-6.052 Y-25.875
N815 X-5.987 Y-25.659
N820 X-5.871 Y-25.335
N825 X-5.659 Y-24.796
N830 X-5.014 Y-23.176
N835 X-4.908 Y-22.911
N840 X-4.409 Y-21.455
N845 X-3.939 Y-19.989
N850 X-3.556 Y-18.499
N855 X-3.243 Y-16.992
N860 X-2.987 Y-15.474
N865 X-2.776 Y-13.949
N870 X-2.604 Y-12.42
N875 X-2.462 Y-10.887
N880 X-2.346 Y-9.353
N885 X-2.25 Y-7.817
N890 X-1.77 Y-6.354
N895 X-0.919 Y-5.072
N900 X0.153 Y-3.968
N905 X1.371 Y-3.026
N910 X2.688 Y-2.229
N915 X4.072 Y-1.558
N920 X5.504 Y-0.993
N925 X6.969 Y-0.521
N930 X8.457 Y-0.126
N935 X9.96 Y0.203
N940 X11.475 Y0.476
N945 X12.997 Y0.704
N950 X14.525 Y0.893
N955 X16.056 Y1.05
N960 X17.589 Y1.179
N965 X19.125 Y1.287
N970 X20.661 Y1.376
N975 X22.198 Y1.45
N980 X23.736 Y1.511
N985 X25.275 Y1.561
N990 X26.672 Y1.599
N995 X26.932 Y1.616
N1000 X27.189 Y1.654
N1005 X27.442 Y1.711
N1010 X32.325 Y3.028
N1015 X33.404 Y3.316
N1020 X33.943 Y3.441
N1025 X40.419 Y4.851
N1030 X41.498 Y5.076
N1035 X42.037 Y5.169
N1040 X48.513 Y6.25
N1045 X49.592 Y6.414
N1050 X56.067 Y7.172
N1055 X56.607 Y7.234
N1060 X57.146 Y7.287
N1065 X57.686 Y7.339
N1070 X64.161 Y7.777
N1075 X64.701 Y7.811
N1080 X65.24 Y7.837
N1085 X65.78 Y7.86
N1090 X72.795 Y7.991
N1095 X73.334 Y7.993
N1100 X73.874 Y7.981
N1105 X80.349 Y7.785
N1110 X80.889 Y7.764
N1115 X81.428 Y7.736
N1120 X81.968 Y7.703
N1125 X88.443 Y7.188
N1130 X88.983 Y7.139
N1135 X89.834 Y7.051
N1140 X96.537 Y6.187
N1145 X97.077 Y6.109
N1150 X97.616 Y6.024
N1155 X97.94 Y5.972
N1160 X104.631 Y4.774
N1165 X105.171 Y4.665
N1170 X105.71 Y4.551
N1175 X106.579 Y4.352
N1180 X109.487 Y3.683
N1185 X111.003 Y3.414
N1190 X112.515 Y3.126
N1195 X114.036 Y2.891
N1200 X115.563 Y2.698
N1205 X117.094 Y2.54
N1210 X118.627 Y2.41
N1215 X120.163 Y2.302
N1220 X121.699 Y2.214
N1225 X123.237 Y2.142
N1230 X124.774 Y2.082
N1235 X126.313 Y2.032
N1240 X127.851 Y1.992
N1245 X129.39 Y1.958
N1250 X130.929 Y1.931
N1255 X132.468 Y1.908
N1260 X134.007 Y1.889
N1265 X135.546 Y1.873
N1270 X137.085 Y1.861
N1275 X138.624 Y1.85
N1280 X140.163 Y1.841
N1285 X141.702 Y1.834
N1290 X143.241 Y1.828
N1295 X146.319 Y1.819
N1300 X149.398 Y1.813
N1305 X149.781 Y1.776
N1310 X151.292 Y1.487
N1315 X152.622 Y0.711
N1320 X153.77 Y-0.314
N1325 X154.75 Y-1.5
N1330 X155.582 Y-2.796
N1335 X156.283 Y-4.165
N1340 X156.873 Y-5.587
N1345 X157.367 Y-7.045
N1350 X157.78 Y-8.527
N1355 X158.125 Y-10.027
N1360 X158.412 Y-11.539
N1365 X158.65 Y-13.06
N1370 X158.848 Y-14.586
N1375 X159.013 Y-16.117
N1380 X159.149 Y-17.65
N1385 X159.189 Y-18.19
N1390 X159.252 Y-18.636
N1395 X159.376 Y-19.07
N1400 X159.558 Y-19.483
N1405 X159.795 Y-19.867
N1410 X160.21 Y-20.449
N1415 X160.972 Y-21.557
N1420 X161.702 Y-22.637
N1425 X161.828 Y-22.865
N1430 X162.288 Y-23.716
N1435 X163.107 Y-25.335
N1440 X163.379 Y-25.875
N1445 X163.447 Y-26.026
N1450 X163.834 Y-26.955
N1455 X164.023 Y-27.494
N1460 X164.584 Y-29.114
N1465 X164.759 Y-29.654
N1470 X164.93 Y-30.193
N1475 X165.066 Y-30.743
N1480 X165.177 Y-31.273
N1485 X165.395 Y-32.352
N1490 X165.611 Y-33.432
N1495 X165.698 Y-33.972
N1500 X165.77 Y-34.512
N1505 X165.818 Y-35.051
N1510 X165.922 Y-36.671
N1515 X165.953 Y-37.21
N1520 X165.982 Y-37.75
N1525 X165.987 Y-38.29
N1530 X165.968 Y-38.83
N1535 X165.938 Y-39.37
N1540 X165.822 Y-40.989
N1545 X165.778 Y-41.529
N1550 X165.722 Y-42.068
N1555 X165.647 Y-42.608
N1560 X165.541 Y-43.148
N1565 X165.432 Y-43.688
N1570 X165.066 Y-45.435
N1575 X164.971 Y-45.847
N1580 X164.816 Y-46.387
N1585 X164.652 Y-46.926
N1590 X163.987 Y-48.799
N1595 X163.884 Y-49.085
N1600 X163.677 Y-49.625
N1605 X163.463 Y-50.165
N1610 X163.447 Y-50.197
N1615 X162.831 Y-51.607
N1620 X162.281 Y-53.044
N1625 X161.834 Y-54.517
N1630 X161.47 Y-56.013
N1635 X161.173 Y-57.523
N1640 X160.929 Y-59.042
N1645 X160.73 Y-60.569
N1650 X160.502 Y-62.091
N1655 X159.777 Y-63.449
N1660 X158.784 Y-64.624
N1665 X157.619 Y-65.63
N1670 X156.338 Y-66.484
N1675 X154.978 Y-67.204
N1680 X153.564 Y-67.811
N1685 X152.111 Y-68.319
N1690 X150.632 Y-68.744
N1695 X149.134 Y-69.098
N1700 X147.623 Y-69.393
N1705 X146.104 Y-69.639
N1710 X144.578 Y-69.843
N1715 X143.049 Y-70.012
N1720 X141.516 Y-70.152
N1725 X139.981 Y-70.268
N1730 X138.445 Y-70.365
N1735 X136.908 Y-70.444
N1740 X135.37 Y-70.51
N1745 X133.832 Y-70.565
N1750 X132.294 Y-70.61
N1755 X130.755 Y-70.647
N1760 X129.216 Y-70.677
N1765 X127.677 Y-70.703
N1770 X126.138 Y-70.724
N1775 X124.599 Y-70.741
N1780 X123.06 Y-70.755
N1785 X121.521 Y-70.767
N1790 X119.982 Y-70.777
N1795 X118.443 Y-70.785
N1800 X116.904 Y-70.792
N1805 X113.826 Y-70.802
N1810 X110.748 Y-70.808
N1815 X106.13 Y-70.815
N1820 X99.974 Y-70.819
N1825 X89.2 Y-70.822
N1830 X73.809 Y-70.823
N1835 X52.957
N1840 X52.5 Y-70.855
N1845 X52.052 Y-70.95
N1850 X51.622 Y-71.105
N1855 X51.217 Y-71.319
N1860 X50.671 Y-71.657
N1865 X50.131 Y-71.983
N1870 X49.606 Y-72.296
N1875 X49.052 Y-72.574
N1880 X46.354 Y-73.849
N1885 X46.204 Y-73.915
N1890 X45.275 Y-74.306
N1895 X44.849 Y-74.455
N1900 X42.577 Y-75.228
N1905 X42.037 Y-75.411
N1910 X41.622 Y-75.534
N1915 X40.958 Y-75.712
N1920 X40.419 Y-75.837
N1925 X38.26 Y-76.305
N1930 X37.721 Y-76.421
N1935 X37.181 Y-76.518
N1940 X36.492 Y-76.614
N1945 X36.102 Y-76.658
N1950 X33.943 Y-76.874
N1955 X33.404 Y-76.927
N1960 X32.864 Y-76.97
N1965 X32.325 Y-76.982
N1970 X31.785 Y-76.989
N1975 X29.627 Y-76.959
N1980 X28.547 Y-76.94
N1985 X28.008 Y-76.891
N1990 X27.468 Y-76.841
N1995 X25.31 Y-76.563
N2000 X24.231 Y-76.421
N2005 X23.691 Y-76.317
N2010 X23.151 Y-76.202
N2015 X22.612 Y-76.073
N2020 X20.993 Y-75.674
N2025 X20.44 Y-75.534
N2030 X19.914 Y-75.4
N2035 X19.374 Y-75.237
N2040 X18.676 Y-74.995
N2045 X18.295 Y-74.856
N2050 X16.676 Y-74.254
N2055 X16.137 Y-74.05
N2060 X15.798 Y-73.915
N2065 X14.341 Y-73.419
N2070 X12.875 Y-72.951
N2075 X11.553 Y-72.162
N2080 X10.882 Y-71.494
N2085 X10.722 Y-71.345
N2090 X10.552 Y-71.206
N2095 X10.373 Y-71.079
N2100 G3 X9.154 Y-72.594 Z-19.55 I-0.511 J-0.836
N2105 X9.408 Y-72.784 I0.707 J0.678
N2110 G1 X14.951 Y-75.681
N2115 G3 X15.253 Y-75.781 I0.454 J0.869
N2120 X15.798 Y-73.915 Z-19.75 I0.151 J0.968
N2125 G1 X15.597 Y-73.835
N2130 X15.058 Y-73.605
N2135 X14.518 Y-73.336
N2140 X13.978 Y-73.065
N2145 X12.36 Y-72.243
N2150 X11.82 Y-71.966
N2155 X11.28 Y-71.652
N2160 X10.741 Y-71.322
N2165 X8.582 Y-69.897
N2170 X8.043 Y-69.526
N2175 X7.503 Y-69.147
N2180 X7.394 Y-69.057
N2185 X6.424 Y-68.248
N2190 X5.345 Y-67.344
N2195 X4.805 Y-66.887
N2200 X4.214 Y-66.358
N2205 X3.726 Y-65.868
N2210 X1.629 Y-63.659
N2215 X1.568 Y-63.59
N2220 X1.028 Y-62.942
N2225 X0.732 Y-62.58
N2230 X-0.894 Y-60.421
N2235 X-1.13 Y-60.099
N2240 X-1.287 Y-59.881
N2245 X-1.647 Y-59.341
N2250 X-1.67 Y-59.304
N2255 X-1.968 Y-58.801
N2260 X-2.394 Y-58.077
N2265 X-2.402 Y-58.071 Z-19.749
N2270 G2 X-4.938 Y-56.852 Z-19.55 I7.176 J18.179
N2275 X-9.412 Y-53.335 I9.712 J16.96
N2280 X-9.901 Y-52.225 I1.307 J1.238
N2285 G1 X-11.506 Y-29.771
N2290 G2 X-11.18 Y-28.603 I1.795 J0.128
N2295 X-7.251 Y-24.485 I15.954 J-11.289
N2300 X-4.914 Y-22.918 Z-19.749 I12.026 J-15.407
N2305 G1 X-4.908 Y-22.911 Z-19.75
N2310 X-4.798 Y-22.637
N2315 X-4.573 Y-22.097
N2320 X-4.34 Y-21.557
N2325 X-4.077 Y-21.017
N2330 X-3.79 Y-20.477
N2335 X-3.21 Y-19.398
N2340 X-2.63 Y-18.318
N2345 X-2.319 Y-17.779
N2350 X-1.971 Y-17.239
N2355 X-1.67 Y-16.779
N2360 X-0.489 Y-15.08
N2365 X-0.11 Y-14.54
N2370 X0.488 Y-13.767
N2375 X0.73 Y-13.46
N2380 X2.647 Y-11.281
N2385 X3.124 Y-10.761
N2390 X3.726 Y-10.172
N2395 X5.461 Y-8.602
N2400 X6.059 Y-8.063
N2405 X6.424 Y-7.751
N2410 X7.444 Y-6.983
N2415 X9.662 Y-5.395
N2420 X9.709 Y-5.364
N2425 X10.741 Y-4.721
N2430 X12.899 Y-3.52
N2435 X13.485 Y-3.205
N2440 X13.978 Y-2.942
N2445 X14.518 Y-2.699
N2450 X15.058 Y-2.469
N2455 X15.881 Y-2.125
N2460 X17.216 Y-1.571
N2465 X17.756 Y-1.353
N2470 X18.295 Y-1.155
N2475 X18.625 Y-1.046
N2480 X25.312 Y1.114
N2485 X25.849 Y1.272
N2490 X26.389 Y1.425
N2495 X26.929 Y1.573
N2500 X27.442 Y1.711
N2505 X28.199 Y1.915 Z-19.695
N2510 X30.171 Y2.447 Z-19.55
N2515 X32.325 Y3.028
N2520 X33.404 Y3.316
N2525 X33.943 Y3.441
N2530 X40.419 Y4.851
N2535 X41.498 Y5.076
N2540 X42.037 Y5.169
N2545 X48.513 Y6.25
N2550 X49.592 Y6.414
N2555 X56.067 Y7.172
N2560 X56.607 Y7.234
N2565 X57.146 Y7.287
N2570 X57.686 Y7.339
N2575 X64.161 Y7.777
N2580 X64.701 Y7.811
N2585 X65.24 Y7.837
N2590 X65.78 Y7.86
N2595 X72.795 Y7.991
N2600 X73.334 Y7.993
N2605 X73.874 Y7.981
N2610 X80.349 Y7.785
N2615 X80.889 Y7.764
N2620 X81.428 Y7.736
N2625 X81.968 Y7.703
N2630 X88.443 Y7.188
N2635 X88.983 Y7.139
N2640 X89.834 Y7.051
N2645 X96.537 Y6.187
N2650 X97.077 Y6.109
N2655 X97.616 Y6.024
N2660 X97.94 Y5.972
N2665 X104.631 Y4.774
N2670 X105.171 Y4.665
N2675 X105.71 Y4.551
N2680 X106.25 Y4.428
N2685 X106.733 Y4.317
N2690 X108.724 Y3.859 Z-19.695
N2695 X109.487 Y3.683 Z-19.75
N2700 X112.725 Y2.938
N2705 X113.265 Y2.795
N2710 X113.804 Y2.646
N2715 X114.344 Y2.495
N2720 X119.74 Y0.972
N2725 X120.819 Y0.658
N2730 X121.078 Y0.574
N2735 X127.508 Y-1.585
N2740 X127.834 Y-1.696
N2745 X128.913 Y-2.091
N2750 X129.453 Y-2.302
N2755 X130.912 Y-2.79
N2760 X132.38 Y-3.252
N2765 X133.872 Y-3.629
N2770 X135.38 Y-3.939
N2775 X136.898 Y-4.194
N2780 X138.423 Y-4.403
N2785 X139.952 Y-4.576
N2790 X141.457 Y-4.897
N2795 X142.872 Y-5.503
N2800 X144.164 Y-6.339
N2805 X145.322 Y-7.353
N2810 X146.346 Y-8.502
N2815 X147.243 Y-9.753
N2820 X147.494 Y-10.062
N2825 X147.78 Y-10.338
N2830 X148.097 Y-10.579
N2835 X148.44 Y-10.78
N2840 X149.957 Y-11.553
N2845 X150.497 Y-11.851
N2850 X151.036 Y-12.176
N2855 X152.655 Y-13.197
N2860 X153.069 Y-13.46
N2865 X153.195 Y-13.544
N2870 X153.734 Y-13.912
N2875 X153.851 Y-14.
N2880 X154.274 Y-14.341
N2885 X155.158 Y-15.08
N2890 X155.893 Y-15.696
N2895 X156.436 Y-16.159
N2900 X156.972 Y-16.666
N2905 X157.512 Y-17.24
N2910 X158.492 Y-18.318
N2915 X158.974 Y-18.858
N2920 X158.983 Y-18.863 Z-19.749
N2925 G2 X161.7 Y-19.593 Z-19.55 I-2.953 J-16.404
N2930 X165.639 Y-21.648 I-5.669 J-15.674
N2935 X166.383 Y-22.864 I-1.038 J-1.471
N2940 G1 X169.44 Y-44.278
N2945 G2 X169.065 Y-45.654 I-1.782 J-0.254
N2950 X165.858 Y-48.729 I-13.035 J10.387
N2955 X163.454 Y-50.19 Z-19.749 I-9.828 J13.462
N2960 G1 X163.447 Y-50.197 Z-19.75
N2965 X162.924 Y-51.245
N2970 X162.367 Y-52.324
N2975 X161.799 Y-53.404
N2980 X161.453 Y-53.943
N2985 X161.096 Y-54.483
N2990 X160.34 Y-55.563
N2995 X159.575 Y-56.642
N3000 X159.13 Y-57.198
N3005 X158.591 Y-57.791
N3010 X157.512 Y-58.958
N3015 X157.148 Y-59.341
N3020 X156.62 Y-59.881
N3025 X156.432 Y-60.066
N3030 X156.014 Y-60.421
N3035 X154.707 Y-61.5
N3040 X154.052 Y-62.04
N3045 X153.734 Y-62.288
N3050 X153.195 Y-62.667
N3055 X152.655 Y-63.02
N3060 X150.752 Y-64.199
N3065 X150.497 Y-64.355
N3070 X149.957 Y-64.649
N3075 X149.788 Y-64.739
N3080 X149.418 Y-64.913
N3085 X148.604 Y-65.279
N3090 X147.799 Y-65.638
N3095 X147.392 Y-65.818
N3100 X146.72 Y-66.104
N3105 X146.18 Y-66.312
N3110 X145.64 Y-66.483
N3115 X145.101 Y-66.649
N3120 X143.482 Y-67.123
N3125 X142.942 Y-67.273
N3130 X142.223 Y-67.438
N3135 X141.863 Y-67.509
N3140 X140.784 Y-67.673
N3145 X139.705 Y-67.836
N3150 X138.704 Y-67.978
N3155 X138.626 Y-67.983
N3160 X138.086 Y-68.012
N3165 X137.546 Y-68.036
N3170 X135.388 Y-68.069
N3175 X134.849 Y-68.062
N3180 X134.309 Y-68.053
N3185 X133.23 Y-67.939
N3190 X131.071 Y-67.679
N3195 X130.532 Y-67.585
N3200 X129.992 Y-67.486
N3205 X129.795 Y-67.438
N3210 X128.913 Y-67.21
N3215 X127.717 Y-66.898
N3220 X126.755 Y-66.635
N3225 X126.215 Y-66.444
N3230 X125.988 Y-66.358
N3235 X124.523 Y-65.888
N3240 X123.04 Y-65.476
N3245 X121.537 Y-65.141
N3250 X120.023 Y-64.868
N3255 X118.5 Y-64.644
N3260 X116.972 Y-64.461
N3265 X115.44 Y-64.312
N3270 X113.906 Y-64.189
N3275 X112.37 Y-64.088
N3280 X110.833 Y-64.006
N3285 X109.296 Y-63.938
N3290 X107.757 Y-63.882
N3295 X106.219 Y-63.836
N3300 X104.68 Y-63.798
N3305 X103.142 Y-63.767
N3310 X101.603 Y-63.742
N3315 X100.064 Y-63.721
N3320 X98.525 Y-63.703
N3325 X96.986 Y-63.689
N3330 X95.447 Y-63.677
N3335 X93.908 Y-63.668
N3340 X92.368 Y-63.66
N3345 X90.829 Y-63.653
N3350 X87.751 Y-63.644
N3355 X84.673 Y-63.637
N3360 X80.056 Y-63.631
N3365 X75.438 Y-63.627
N3370 X66.204 Y-63.624
N3375 X62.504
N3380 X62.103 Y-63.648
N3385 X61.707 Y-63.722
N3390 X61.323 Y-63.842
N3395 X60.957 Y-64.009
N3400 X60.613 Y-64.219
N3405 X60.384 Y-64.38
N3410 X59.885 Y-64.739
N3415 X59.844 Y-64.771
N3420 X57.146 Y-66.987
N3425 X56.592 Y-67.438
N3430 X56.067 Y-67.859
N3435 X54.448 Y-69.14
N3440 X53.909 Y-69.555
N3445 X53.105 Y-70.137
N3450 X52.829 Y-70.318
N3455 X51.217 Y-71.319
N3460 G3 X50.723 Y-73.816 Z-19.55 I1.002 J-1.495
N3465 X52.337 Y-74.611 I1.496 J1.001
N3470 G1 X125.413 Y-69.816
N3475 G3 X126.957 Y-68.711 I-0.118 J1.796
N3480 X125.988 Y-66.358 Z-19.75 I-1.662 J0.692
N3485 G1 X125.675 Y-66.24
N3490 X125.136 Y-66.022
N3495 X123.327 Y-65.279
N3500 X122.438 Y-64.846
N3505 X122.226 Y-64.739
N3510 X120.279 Y-63.612
N3515 X119.74 Y-63.3
N3520 X119.2 Y-62.969
N3525 X118.121 Y-62.303
N3530 X115.949 Y-60.961
N3535 X115.423 Y-60.683
N3540 X114.915 Y-60.421
N3545 X113.514 Y-59.785
N3550 X112.085 Y-59.211
N3555 X110.621 Y-58.738
N3560 X109.132 Y-58.347
N3565 X107.628 Y-58.023
N3570 X106.112 Y-57.754
N3575 X104.589 Y-57.531
N3580 X103.062 Y-57.346
N3585 X101.53 Y-57.191
N3590 X99.996 Y-57.063
N3595 X98.461 Y-56.956
N3600 X96.924 Y-56.867
N3605 X95.387 Y-56.793
N3610 X93.849 Y-56.732
N3615 X92.311 Y-56.68
N3620 X90.773 Y-56.637
N3625 X89.234 Y-56.601
N3630 X87.695 Y-56.572
N3635 X86.156 Y-56.547
N3640 X84.617 Y-56.526
N3645 X83.078 Y-56.509
N3650 X81.539 Y-56.495
N3655 X80. Y-56.483
N3660 X78.461 Y-56.473
N3665 X76.754 Y-56.464
N3670 X76.42 Y-56.479
N3675 X76.089 Y-56.528
N3680 X75.765 Y-56.611
N3685 X74.413 Y-57.028
N3690 X73.874 Y-57.209
N3695 X73.334 Y-57.406
N3700 X70.636 Y-58.475
N3705 X70.097 Y-58.716
N3710 X69.557 Y-58.961
N3715 X68.777 Y-59.341
N3720 X67.399 Y-60.015
N3725 X66.859 Y-60.295
N3730 X66.319 Y-60.59
N3735 X65.78 Y-60.89
N3740 X63.621 Y-62.162
N3745 X63.082 Y-62.516
N3750 X62.542 Y-62.878
N3755 X62.186 Y-63.12
N3760 X60.613 Y-64.219
N3765 G3 X60.256 Y-66.739 Z-19.55 I1.082 J-1.438
N3770 X61.821 Y-67.453 I1.439 J1.081
N3775 G1 X114.16 Y-63.786
N3780 G3 X115.605 Y-62.87 I-0.126 J1.796
N3785 X114.915 Y-60.421 Z-19.75 I-1.57 J0.88
N3790 G1 X113.265 Y-59.57
N3795 X112.81 Y-59.341
N3800 X112.185 Y-59.052
N3805 X111.641 Y-58.801
N3810 X109.487 Y-57.895
N3815 X109.047 Y-57.722
N3820 X108.408 Y-57.483
N3825 X107.869 Y-57.289
N3830 X105.71 Y-56.572
N3835 X104.631 Y-56.25
N3840 X104.069 Y-56.103
N3845 X102.473 Y-55.706
N3850 X101.933 Y-55.575
N3855 X100.854 Y-55.328
N3860 X99.775 Y-55.146
N3865 X97.616 Y-54.785
N3870 X97.077 Y-54.708
N3875 X95.458 Y-54.564
N3880 X93.839 Y-54.421
N3885 X93.299 Y-54.393
N3890 X92.76 Y-54.375
N3895 X92.22 Y-54.362
N3900 X90.062 Y-54.339
N3905 X89.522 Y-54.35
N3910 X88.983 Y-54.363
N3915 X88.443 Y-54.391
N3920 X86.824 Y-54.5
N3925 X86.285 Y-54.538
N3930 X85.205 Y-54.625
N3935 X84.666 Y-54.702
N3940 X81.968 Y-55.095
N3945 X81.428 Y-55.185
N3950 X80.349 Y-55.421
N3955 X78.191 Y-55.909
N3960 X77.651 Y-56.04
N3965 X77.41 Y-56.103
N3970 X75.765 Y-56.611
N3975 G3 X75.102 Y-57.02 I0.591 J-1.7
N3980 G1 X74.983 Y-57.136 Z-19.742
N3985 X74.864 Y-57.25 Z-19.719
N3990 X74.748 Y-57.363 Z-19.681
N3995 X74.635 Y-57.473 Z-19.628
N4000 X74.526 Y-57.579 Z-19.561
N4005 X74.422 Y-57.68 Z-19.48
N4010 X74.324 Y-57.776 Z-19.386
N4015 X74.232 Y-57.865 Z-19.28
N4020 X74.148 Y-57.947 Z-19.163
N4025 X74.071 Y-58.021 Z-19.035
N4030 X74.004 Y-58.086 Z-18.898
N4035 X73.946 Y-58.143 Z-18.752
N4040 X73.898 Y-58.19 Z-18.6
N4045 X73.86 Y-58.226 Z-18.443
N4050 X73.833 Y-58.253 Z-18.281
N4055 X73.816 Y-58.269 Z-18.116
N4060 X73.811 Y-58.274 Z-17.95
N4065 G0 Z5.
N4070 G1 X127.726 Y-0.401 F5000.
N4075 G0 Z-16.15
N4080 G1 Z-17.95 F1720.
N4085 X127.73 Y-0.407 Z-18.116
N4090 X127.745 Y-0.425 Z-18.281
N4095 X127.768 Y-0.455 Z-18.443
N4100 X127.8 Y-0.497 Z-18.6
N4105 X127.842 Y-0.55 Z-18.752
N4110 X127.891 Y-0.613 Z-18.898
N4115 X127.949 Y-0.687 Z-19.035
N4120 X128.014 Y-0.771 Z-19.163
N4125 X128.086 Y-0.864 Z-19.28
N4130 X128.165 Y-0.965 Z-19.386
N4135 X128.249 Y-1.073 Z-19.48
N4140 X128.339 Y-1.188 Z-19.561
N4145 X128.432 Y-1.308 Z-19.628
N4150 X128.529 Y-1.432 Z-19.681
N4155 X128.628 Y-1.56 Z-19.719
N4160 X128.729 Y-1.69 Z-19.742
N4165 X128.831 Y-1.821 Z-19.75
N4170 G3 X129.453 Y-2.302 I1.249 J0.972
N4175 G1 X135.388 Y-4.624
N4180 X135.88 Y-4.824
N4185 X137.087 Y-5.364
N4190 X142.403 Y-7.75
N4195 X142.942 Y-7.995
N4200 X143.086 Y-8.063
N4205 X143.482 Y-8.257
N4210 X148.44 Y-10.78
N4215 X148.533 Y-10.812 Z-19.744
N4220 X148.625 Y-10.844 Z-19.725
N4225 X148.714 Y-10.874 Z-19.695
N4230 X148.798 Y-10.903 Z-19.653
N4235 X148.885 Y-10.914 Z-19.596
N4240 X148.965 Y-10.923 Z-19.528
N4245 X149.034 Y-10.932 Z-19.45
N4250 X149.093 Y-10.939 Z-19.363
N4255 X149.14 Y-10.945 Z-19.27
N4260 X149.173 Y-10.949 Z-19.171
N4265 X149.192 Z-19.084
N4270 X149.2 Z-18.997
N4275 X149.201 Z-18.965
N4280 G0 Z5.
N4285 G1 X-16.046 Y-81.986 F5000.
N4290 G0 Z-17.4
N4295 G1 Z-19.2 F1720.
N4300 X-16.04 Y-81.982 Z-19.366
N4305 X-16.02 Y-81.971 Z-19.531
N4310 X-15.986 Y-81.953 Z-19.693
N4315 X-15.94 Y-81.927 Z-19.85
N4320 X-15.882 Y-81.894 Z-20.002
N4325 X-15.811 Y-81.855 Z-20.148
N4330 X-15.729 Y-81.809 Z-20.285
N4335 X-15.636 Y-81.757 Z-20.413
N4340 X-15.534 Y-81.7 Z-20.53
N4345 X-15.422 Y-81.638 Z-20.636
N4350 X-15.302 Y-81.571 Z-20.73
N4355 X-15.175 Y-81.5 Z-20.811
N4360 X-15.042 Y-81.426 Z-20.878
N4365 X-14.905 Y-81.349 Z-20.931
N4370 X-14.763 Y-81.271 Z-20.969
N4375 X-14.619 Y-81.19 Z-20.992
N4380 X-14.474 Y-81.11 Z-21.
N4385 G3 X-6.397 Y-75.385 I-22.38 J40.136
N4390 G1 X-6.332 Y-75.322
N4395 X-6.241 Y-75.203
N4400 X-6.151 Y-75.083
N4405 X-6.064 Y-74.961
N4410 X-5.978 Y-74.838
N4415 X-5.893 Y-74.714
N4420 X-5.81 Y-74.589
N4425 X-5.729 Y-74.463
N4430 X-5.649 Y-74.336
N4435 X-5.571 Y-74.208
N4440 X-5.494 Y-74.079
N4445 X-5.418 Y-73.95
N4450 X-5.344 Y-73.82
N4455 X-5.271 Y-73.688
N4460 X-5.199 Y-73.557
N4465 X-5.129 Y-73.424
N4470 X-5.06 Y-73.291
N4475 X-4.992 Y-73.157
N4480 X-4.926 Y-73.023
N4485 X-4.86 Y-72.888
N4490 X-4.796 Y-72.752
N4495 X-4.733 Y-72.616
N4500 X-4.671 Y-72.479
N4505 X-4.611 Y-72.342
N4510 X-4.551 Y-72.205
N4515 X-4.492 Y-72.067
N4520 X-4.435 Y-71.928
N4525 X-4.377 Y-71.787
N4530 X-4.319 Y-71.642
N4535 X-4.261 Y-71.493
N4540 X-4.203 Y-71.341
N4545 X-4.144 Y-71.184
N4550 X-4.086 Y-71.023
N4555 X-4.027 Y-70.858
N4560 X-3.967 Y-70.688
N4565 X-3.908 Y-70.514
N4570 X-3.848 Y-70.335
N4575 X-3.789 Y-70.15
N4580 X-3.729 Y-69.96
N4585 X-3.668 Y-69.765
N4590 X-3.608 Y-69.564
N4595 X-3.548 Y-69.356
N4600 X-3.487 Y-69.142
N4605 X-3.426 Y-68.921
N4610 X-3.365 Y-68.694
N4615 X-3.303 Y-68.458
N4620 X-3.242 Y-68.215
N4625 X-3.18 Y-67.963
N4630 X-3.118 Y-67.702
N4635 X-3.056 Y-67.431
N4640 X-2.994 Y-67.151
N4645 X-2.932 Y-66.859
N4650 X-2.869 Y-66.556
N4655 X-2.806 Y-66.241
N4660 X-2.744 Y-65.912
N4665 X-2.681 Y-65.569
N4670 X-2.618 Y-65.21
N4675 X-2.554 Y-64.834
N4680 X-2.491 Y-64.44
N4685 X-2.427 Y-64.026
N4690 X-2.364 Y-63.589
N4695 X-2.3 Y-63.128
N4700 X-2.236 Y-62.639
N4705 X-2.172 Y-62.12
N4710 X-2.108 Y-61.567
N4715 X-2.044 Y-60.974
N4720 X-1.979 Y-60.338
N4725 X-1.953 Y-60.058
N4730 X-1.94 Y-59.646
N4735 X-1.979 Y-59.235
N4740 X-2.069 Y-58.833
N4745 X-2.208 Y-58.445
N4750 X-2.394 Y-58.077
N4755 X-2.921 Y-57.182
N4760 X-3.233 Y-56.642
N4765 X-3.542 Y-56.103
N4770 X-3.818 Y-55.563
N4775 X-4.066 Y-55.023
N4780 X-4.31 Y-54.483
N4785 X-5.029 Y-52.864
N4790 X-5.261 Y-52.324
N4795 X-5.474 Y-51.784
N4800 X-5.675 Y-51.245
N4805 X-6.183 Y-49.625
N4810 X-6.526 Y-48.53
N4815 X-6.69 Y-48.006
N4820 X-6.822 Y-47.466
N4825 X-6.953 Y-46.926
N4830 X-7.368 Y-44.767
N4835 X-7.574 Y-43.688
N4840 X-7.606 Y-43.495
N4845 X-7.71 Y-42.608
N4850 X-7.756 Y-42.068
N4855 X-7.879 Y-40.449
N4860 X-7.96 Y-39.37
N4865 X-7.979 Y-38.83
N4870 X-7.98 Y-38.29
N4875 X-7.969 Y-37.75
N4880 X-7.887 Y-35.591
N4885 X-7.865 Y-35.051
N4890 X-7.832 Y-34.512
N4895 X-7.77 Y-33.972
N4900 X-7.702 Y-33.432
N4905 X-7.372 Y-31.273
N4910 X-7.202 Y-30.193
N4915 X-7.066 Y-29.6
N4920 X-6.943 Y-29.114
N4925 X-6.356 Y-26.955
N4930 X-6.204 Y-26.415
N4935 X-6.052 Y-25.875
N4940 X-5.987 Y-25.659
N4945 X-5.871 Y-25.335
N4950 X-5.659 Y-24.796
N4955 X-5.014 Y-23.176
N4960 X-4.908 Y-22.911
N4965 X-4.409 Y-21.455
N4970 X-3.939 Y-19.989
N4975 X-3.556 Y-18.499
N4980 X-3.243 Y-16.992
N4985 X-2.987 Y-15.474
N4990 X-2.776 Y-13.949
N4995 X-2.604 Y-12.42
N5000 X-2.462 Y-10.887
N5005 X-2.346 Y-9.353
N5010 X-2.25 Y-7.817
N5015 X-1.77 Y-6.354
N5020 X-0.919 Y-5.072
N5025 X0.153 Y-3.968
N5030 X1.371 Y-3.026
N5035 X2.688 Y-2.229
N5040 X4.072 Y-1.558
N5045 X5.504 Y-0.993
N5050 X6.969 Y-0.521
N5055 X8.457 Y-0.126
N5060 X9.96 Y0.203
N5065 X11.475 Y0.476
N5070 X12.997 Y0.704
N5075 X14.525 Y0.893
N5080 X16.056 Y1.05
N5085 X17.589 Y1.179
N5090 X19.125 Y1.287
N5095 X20.661 Y1.376
N5100 X22.198 Y1.45
N5105 X23.736 Y1.511
N5110 X25.275 Y1.561
N5115 X26.672 Y1.599
N5120 X26.932 Y1.616
N5125 X27.189 Y1.654
N5130 X27.442 Y1.711
N5135 X32.325 Y3.028
N5140 X33.404 Y3.316
N5145 X33.943 Y3.441
N5150 X40.419 Y4.851
N5155 X41.498 Y5.076
N5160 X42.037 Y5.169
N5165 X48.513 Y6.25
N5170 X49.592 Y6.414
N5175 X56.067 Y7.172
N5180 X56.607 Y7.234
N5185 X57.146 Y7.287
N5190 X57.686 Y7.339
N5195 X64.161 Y7.777
N5200 X64.701 Y7.811
N5205 X65.24 Y7.837
N5210 X65.78 Y7.86
N5215 X72.795 Y7.991
N5220 X73.334 Y7.993
N5225 X73.874 Y7.981
N5230 X80.349 Y7.785
N5235 X80.889 Y7.764
N5240 X81.428 Y7.736
N5245 X81.968 Y7.703
N5250 X88.443 Y7.188
N5255 X88.983 Y7.139
N5260 X89.834 Y7.051
N5265 X96.537 Y6.187
N5270 X97.077 Y6.109
N5275 X97.616 Y6.024
N5280 X97.94 Y5.972
N5285 X104.631 Y4.774
N5290 X105.171 Y4.665
N5295 X105.71 Y4.551
N5300 X106.579 Y4.352
N5305 X109.487 Y3.683
N5310 X111.003 Y3.414
N5315 X112.515 Y3.126
N5320 X114.036 Y2.891
N5325 X115.563 Y2.698
N5330 X117.094 Y2.54
N5335 X118.627 Y2.41
N5340 X120.163 Y2.302
N5345 X121.699 Y2.214
N5350 X123.237 Y2.142
N5355 X124.774 Y2.082
N5360 X126.313 Y2.032
N5365 X127.851 Y1.992
N5370 X129.39 Y1.958
N5375 X130.929 Y1.931
N5380 X132.468 Y1.908
N5385 X134.007 Y1.889
N5390 X135.546 Y1.873
N5395 X137.085 Y1.861
N5400 X138.624 Y1.85
N5405 X140.163 Y1.841
N5410 X141.702 Y1.834
N5415 X143.241 Y1.828
N5420 X146.319 Y1.819
N5425 X149.398 Y1.813
N5430 X149.781 Y1.776
N5435 X151.292 Y1.487
N5440 X152.622 Y0.711
N5445 X153.77 Y-0.314
N5450 X154.75 Y-1.5
N5455 X155.582 Y-2.796
N5460 X156.283 Y-4.165
N5465 X156.873 Y-5.587
N5470 X157.367 Y-7.045
N5475 X157.78 Y-8.527
N5480 X158.125 Y-10.027
N5485 X158.412 Y-11.539
N5490 X158.65 Y-13.06
N5495 X158.848 Y-14.586
N5500 X159.013 Y-16.117
N5505 X159.149 Y-17.65
N5510 X159.189 Y-18.19
N5515 X159.252 Y-18.636
N5520 X159.376 Y-19.07
N5525 X159.558 Y-19.483
N5530 X159.795 Y-19.867
N5535 X160.21 Y-20.449
N5540 X160.972 Y-21.557
N5545 X161.702 Y-22.637
N5550 X161.828 Y-22.865
N5555 X162.288 Y-23.716
N5560 X163.107 Y-25.335
N5565 X163.379 Y-25.875
N5570 X163.447 Y-26.026
N5575 X163.834 Y-26.955
N5580 X164.023 Y-27.494
N5585 X164.584 Y-29.114
N5590 X164.759 Y-29.654
N5595 X164.93 Y-30.193
N5600 X165.066 Y-30.743
N5605 X165.177 Y-31.273
N5610 X165.395 Y-32.352
N5615 X165.611 Y-33.432
N5620 X165.698 Y-33.972
N5625 X165.77 Y-34.512
N5630 X165.818 Y-35.051
N5635 X165.922 Y-36.671
N5640 X165.953 Y-37.21
N5645 X165.982 Y-37.75
N5650 X165.987 Y-38.29
N5655 X165.968 Y-38.83
N5660 X165.938 Y-39.37
N5665 X165.822 Y-40.989
N5670 X165.778 Y-41.529
N5675 X165.722 Y-42.068
N5680 X165.647 Y-42.608
N5685 X165.541 Y-43.148
N5690 X165.432 Y-43.688
N5695 X165.066 Y-45.435
N5700 X164.971 Y-45.847
N5705 X164.816 Y-46.387
N5710 X164.652 Y-46.926
N5715 X163.987 Y-48.799
N5720 X163.884 Y-49.085
N5725 X163.677 Y-49.625
N5730 X163.463 Y-50.165
N5735 X163.447 Y-50.197
N5740 X162.831 Y-51.607
N5745 X162.281 Y-53.044
N5750 X161.834 Y-54.517
N5755 X161.47 Y-56.013
N5760 X161.173 Y-57.523
N5765 X160.929 Y-59.042
N5770 X160.73 Y-60.569
N5775 X160.502 Y-62.091
N5780 X159.777 Y-63.449
N5785 X158.784 Y-64.624
N5790 X157.619 Y-65.63
N5795 X156.338 Y-66.484
N5800 X154.978 Y-67.204
N5805 X153.564 Y-67.811
N5810 X152.111 Y-68.319
N5815 X150.632 Y-68.744
N5820 X149.134 Y-69.098
N5825 X147.623 Y-69.393
N5830 X146.104 Y-69.639
N5835 X144.578 Y-69.843
N5840 X143.049 Y-70.012
N5845 X141.516 Y-70.152
N5850 X139.981 Y-70.268
N5855 X138.445 Y-70.365
N5860 X136.908 Y-70.444
N5865 X135.37 Y-70.51
N5870 X133.832 Y-70.565
N5875 X132.294 Y-70.61
N5880 X130.755 Y-70.647
N5885 X129.216 Y-70.677
N5890 X127.677 Y-70.703
N5895 X126.138 Y-70.724
N5900 X124.599 Y-70.741
N5905 X123.06 Y-70.755
N5910 X121.521 Y-70.767
N5915 X119.982 Y-70.777
N5920 X118.443 Y-70.785
N5925 X116.904 Y-70.792
N5930 X113.826 Y-70.802
N5935 X110.748 Y-70.808
N5940 X106.13 Y-70.815
N5945 X99.974 Y-70.819
N5950 X89.2 Y-70.822
N5955 X73.809 Y-70.823
N5960 X52.957
N5965 X52.5 Y-70.855
N5970 X52.052 Y-70.95
N5975 X51.622 Y-71.105
N5980 X51.217 Y-71.319
N5985 X50.671 Y-71.657
N5990 X50.131 Y-71.983
N5995 X49.606 Y-72.296
N6000 X49.052 Y-72.574
N6005 X46.354 Y-73.849
N6010 X46.204 Y-73.915
N6015 X45.275 Y-74.306
N6020 X44.849 Y-74.455
N6025 X42.577 Y-75.228
N6030 X42.037 Y-75.411
N6035 X41.622 Y-75.534
N6040 X40.958 Y-75.712
N6045 X40.419 Y-75.837
N6050 X38.26 Y-76.305
N6055 X37.721 Y-76.421
N6060 X37.181 Y-76.518
N6065 X36.492 Y-76.614
N6070 X36.102 Y-76.658
N6075 X33.943 Y-76.874
N6080 X33.404 Y-76.927
N6085 X32.864 Y-76.97
N6090 X32.325 Y-76.982
N6095 X31.785 Y-76.989
N6100 X29.627 Y-76.959
N6105 X28.547 Y-76.94
N6110 X28.008 Y-76.891
N6115 X27.468 Y-76.841
N6120 X25.31 Y-76.563
N6125 X24.231 Y-76.421
N6130 X23.691 Y-76.317
N6135 X23.151 Y-76.202
N6140 X22.612 Y-76.073
N6145 X20.993 Y-75.674
N6150 X20.44 Y-75.534
N6155 X19.914 Y-75.4
N6160 X19.374 Y-75.237
N6165 X18.676 Y-74.995
N6170 X18.295 Y-74.856
N6175 X16.676 Y-74.254
N6180 X16.137 Y-74.05
N6185 X15.798 Y-73.915
N6190 X14.341 Y-73.419
N6195 X12.875 Y-72.951
N6200 X11.553 Y-72.162
N6205 X10.882 Y-71.494
N6210 X10.722 Y-71.345
N6215 X10.552 Y-71.206
N6220 X10.373 Y-71.079
N6225 G3 X9.154 Y-72.594 Z-20.8 I-0.511 J-0.836
N6230 X9.408 Y-72.784 I0.707 J0.678
N6235 G1 X14.951 Y-75.681
N6240 G3 X15.253 Y-75.781 I0.454 J0.869
N6245 X15.798 Y-73.915 Z-21. I0.151 J0.968
N6250 G1 X15.597 Y-73.835
N6255 X15.058 Y-73.605
N6260 X14.518 Y-73.336
N6265 X13.978 Y-73.065
N6270 X12.36 Y-72.243
N6275 X11.82 Y-71.966
N6280 X11.28 Y-71.652
N6285 X10.741 Y-71.322
N6290 X8.582 Y-69.897
N6295 X8.043 Y-69.526
N6300 X7.503 Y-69.147
N6305 X7.394 Y-69.057
N6310 X6.424 Y-68.248
N6315 X5.345 Y-67.344
N6320 X4.805 Y-66.887
N6325 X4.214 Y-66.358
N6330 X3.726 Y-65.868
N6335 X1.629 Y-63.659
N6340 X1.568 Y-63.59
N6345 X1.028 Y-62.942
N6350 X0.732 Y-62.58
N6355 X-0.894 Y-60.421
N6360 X-1.13 Y-60.099
N6365 X-1.287 Y-59.881
N6370 X-1.647 Y-59.341
N6375 X-1.67 Y-59.304
N6380 X-1.968 Y-58.801
N6385 X-2.394 Y-58.077
N6390 X-2.402 Y-58.071 Z-20.999
N6395 G2 X-4.938 Y-56.852 Z-20.8 I7.176 J18.179
N6400 X-9.412 Y-53.335 I9.712 J16.96
N6405 X-9.901 Y-52.225 I1.307 J1.238
N6410 G1 X-11.506 Y-29.771
N6415 G2 X-11.18 Y-28.603 I1.795 J0.128
N6420 X-7.251 Y-24.485 I15.954 J-11.289
N6425 X-4.914 Y-22.918 Z-20.999 I12.026 J-15.407
N6430 G1 X-4.908 Y-22.911 Z-21.
N6435 X-4.798 Y-22.637
N6440 X-4.573 Y-22.097
N6445 X-4.34 Y-21.557
N6450 X-4.077 Y-21.017
N6455 X-3.79 Y-20.477
N6460 X-3.21 Y-19.398
N6465 X-2.63 Y-18.318
N6470 X-2.319 Y-17.779
N6475 X-1.971 Y-17.239
N6480 X-1.67 Y-16.779
N6485 X-0.489 Y-15.08
N6490 X-0.11 Y-14.54
N6495 X0.488 Y-13.767
N6500 X0.73 Y-13.46
N6505 X2.647 Y-11.281
N6510 X3.124 Y-10.761
N6515 X3.726 Y-10.172
N6520 X5.461 Y-8.602
N6525 X6.059 Y-8.063
N6530 X6.424 Y-7.751
N6535 X7.444 Y-6.983
N6540 X9.662 Y-5.395
N6545 X9.709 Y-5.364
N6550 X10.741 Y-4.721
N6555 X12.899 Y-3.52
N6560 X13.485 Y-3.205
N6565 X13.978 Y-2.942
N6570 X14.518 Y-2.699
N6575 X15.058 Y-2.469
N6580 X15.881 Y-2.125
N6585 X17.216 Y-1.571
N6590 X17.756 Y-1.353
N6595 X18.295 Y-1.155
N6600 X18.625 Y-1.046
N6605 X25.312 Y1.114
N6610 X25.849 Y1.272
N6615 X26.389 Y1.425
N6620 X26.929 Y1.573
N6625 X27.442 Y1.711
N6630 X28.199 Y1.915 Z-20.945
N6635 X30.171 Y2.447 Z-20.8
N6640 X32.325 Y3.028
N6645 X33.404 Y3.316
N6650 X33.943 Y3.441
N6655 X40.419 Y4.851
N6660 X41.498 Y5.076
N6665 X42.037 Y5.169
N6670 X48.513 Y6.25
N6675 X49.592 Y6.414
N6680 X56.067 Y7.172
N6685 X56.607 Y7.234
N6690 X57.146 Y7.287
N6695 X57.686 Y7.339
N6700 X64.161 Y7.777
N6705 X64.701 Y7.811
N6710 X65.24 Y7.837
N6715 X65.78 Y7.86
N6720 X72.795 Y7.991
N6725 X73.334 Y7.993
N6730 X73.874 Y7.981
N6735 X80.349 Y7.785
N6740 X80.889 Y7.764
N6745 X81.428 Y7.736
N6750 X81.968 Y7.703
N6755 X88.443 Y7.188
N6760 X88.983 Y7.139
N6765 X89.834 Y7.051
N6770 X96.537 Y6.187
N6775 X97.077 Y6.109
N6780 X97.616 Y6.024
N6785 X97.94 Y5.972
N6790 X104.631 Y4.774
N6795 X105.171 Y4.665
N6800 X105.71 Y4.551
N6805 X106.25 Y4.428
N6810 X106.733 Y4.317
N6815 X108.724 Y3.859 Z-20.945
N6820 X109.487 Y3.683 Z-21.
N6825 X112.725 Y2.938
N6830 X113.265 Y2.795
N6835 X113.804 Y2.646
N6840 X114.344 Y2.495
N6845 X119.74 Y0.972
N6850 X120.819 Y0.658
N6855 X121.078 Y0.574
N6860 X127.508 Y-1.585
N6865 X127.834 Y-1.696
N6870 X128.913 Y-2.091
N6875 X129.453 Y-2.302
N6880 X130.912 Y-2.79
N6885 X132.38 Y-3.252
N6890 X133.872 Y-3.629
N6895 X135.38 Y-3.939
N6900 X136.898 Y-4.194
N6905 X138.423 Y-4.403
N6910 X139.952 Y-4.576
N6915 X141.457 Y-4.897
N6920 X142.872 Y-5.503
N6925 X144.164 Y-6.339
N6930 X145.322 Y-7.353
N6935 X146.346 Y-8.502
N6940 X147.243 Y-9.753
N6945 X147.494 Y-10.062
N6950 X147.78 Y-10.338
N6955 X148.097 Y-10.579
N6960 X148.44 Y-10.78
N6965 X149.957 Y-11.553
N6970 X150.497 Y-11.851
N6975 X151.036 Y-12.176
N6980 X152.655 Y-13.197
N6985 X153.069 Y-13.46
N6990 X153.195 Y-13.544
N6995 X153.734 Y-13.912
N7000 X153.851 Y-14.
N7005 X154.274 Y-14.341
N7010 X155.158 Y-15.08
N7015 X155.893 Y-15.696
N7020 X156.436 Y-16.159
N7025 X156.972 Y-16.666
N7030 X157.512 Y-17.24
N7035 X158.492 Y-18.318
N7040 X158.974 Y-18.858
N7045 X158.983 Y-18.863 Z-20.999
N7050 G2 X161.7 Y-19.593 Z-20.8 I-2.953 J-16.404
N7055 X165.639 Y-21.648 I-5.669 J-15.674
N7060 X166.383 Y-22.864 I-1.038 J-1.471
N7065 G1 X169.44 Y-44.278
N7070 G2 X169.065 Y-45.654 I-1.782 J-0.254
N7075 X165.858 Y-48.729 I-13.035 J10.387
N7080 X163.454 Y-50.19 Z-20.999 I-9.828 J13.462
N7085 G1 X163.447 Y-50.197 Z-21.
N7090 X162.924 Y-51.245
N7095 X162.367 Y-52.324
N7100 X161.799 Y-53.404
N7105 X161.453 Y-53.943
N7110 X161.096 Y-54.483
N7115 X160.34 Y-55.563
N7120 X159.575 Y-56.642
N7125 X159.13 Y-57.198
N7130 X158.591 Y-57.791
N7135 X157.512 Y-58.958
N7140 X157.148 Y-59.341
N7145 X156.62 Y-59.881
N7150 X156.432 Y-60.066
N7155 X156.014 Y-60.421
N7160 X154.707 Y-61.5
N7165 X154.052 Y-62.04
N7170 X153.734 Y-62.288
N7175 X153.195 Y-62.667
N7180 X152.655 Y-63.02
N7185 X150.752 Y-64.199
N7190 X150.497 Y-64.355
N7195 X149.957 Y-64.649
N7200 X149.788 Y-64.739
N7205 X149.418 Y-64.913
N7210 X148.604 Y-65.279
N7215 X147.799 Y-65.638
N7220 X147.392 Y-65.818
N7225 X146.72 Y-66.104
N7230 X146.18 Y-66.312
N7235 X145.64 Y-66.483
N7240 X145.101 Y-66.649
N7245 X143.482 Y-67.123
N7250 X142.942 Y-67.273
N7255 X142.223 Y-67.438
N7260 X141.863 Y-67.509
N7265 X140.784 Y-67.673
N7270 X139.705 Y-67.836
N7275 X138.704 Y-67.978
N7280 X138.626 Y-67.983
N7285 X138.086 Y-68.012
N7290 X137.546 Y-68.036
N7295 X135.388 Y-68.069
N7300 X134.849 Y-68.062
N7305 X134.309 Y-68.053
N7310 X133.23 Y-67.939
N7315 X131.071 Y-67.679
N7320 X130.532 Y-67.585
N7325 X129.992 Y-67.486
N7330 X129.795 Y-67.438
N7335 X128.913 Y-67.21
N7340 X127.717 Y-66.898
N7345 X126.755 Y-66.635
N7350 X126.215 Y-66.444
N7355 X125.988 Y-66.358
N7360 X124.523 Y-65.888
N7365 X123.04 Y-65.476
N7370 X121.537 Y-65.141
N7375 X120.023 Y-64.868
N7380 X118.5 Y-64.644
N7385 X116.972 Y-64.461
N7390 X115.44 Y-64.312
N7395 X113.906 Y-64.189
N7400 X112.37 Y-64.088
N7405 X110.833 Y-64.006
N7410 X109.296 Y-63.938
N7415 X107.757 Y-63.882
N7420 X106.219 Y-63.836
N7425 X104.68 Y-63.798
N7430 X103.142 Y-63.767
N7435 X101.603 Y-63.742
N7440 X100.064 Y-63.721
N7445 X98.525 Y-63.703
N7450 X96.986 Y-63.689
N7455 X95.447 Y-63.677
N7460 X93.908 Y-63.668
N7465 X92.368 Y-63.66
N7470 X90.829 Y-63.653
N7475 X87.751 Y-63.644
N7480 X84.673 Y-63.637
N7485 X80.056 Y-63.631
N7490 X75.438 Y-63.627
N7495 X66.204 Y-63.624
N7500 X62.504
N7505 X62.103 Y-63.648
N7510 X61.707 Y-63.722
N7515 X61.323 Y-63.842
N7520 X60.957 Y-64.009
N7525 X60.613 Y-64.219
N7530 X60.384 Y-64.38
N7535 X59.885 Y-64.739
N7540 X59.844 Y-64.771
N7545 X57.146 Y-66.987
N7550 X56.592 Y-67.438
N7555 X56.067 Y-67.859
N7560 X54.448 Y-69.14
N7565 X53.909 Y-69.555
N7570 X53.105 Y-70.137
N7575 X52.829 Y-70.318
N7580 X51.217 Y-71.319
N7585 G3 X50.723 Y-73.816 Z-20.8 I1.002 J-1.495
N7590 X52.337 Y-74.611 I1.496 J1.001
N7595 G1 X125.413 Y-69.816
N7600 G3 X126.957 Y-68.711 I-0.118 J1.796
N7605 X125.988 Y-66.358 Z-21. I-1.662 J0.692
N7610 G1 X125.675 Y-66.24
N7615 X125.136 Y-66.022
N7620 X123.327 Y-65.279
N7625 X122.438 Y-64.846
N7630 X122.226 Y-64.739
N7635 X120.279 Y-63.612
N7640 X119.74 Y-63.3
N7645 X119.2 Y-62.969
N7650 X118.121 Y-62.303
N7655 X115.949 Y-60.961
N7660 X115.423 Y-60.683
N7665 X114.915 Y-60.421
N7670 X113.514 Y-59.785
N7675 X112.085 Y-59.211
N7680 X110.621 Y-58.738
N7685 X109.132 Y-58.347
N7690 X107.628 Y-58.023
N7695 X106.112 Y-57.754
N7700 X104.589 Y-57.531
N7705 X103.062 Y-57.346
N7710 X101.53 Y-57.191
N7715 X99.996 Y-57.063
N7720 X98.461 Y-56.956
N7725 X96.924 Y-56.867
N7730 X95.387 Y-56.793
N7735 X93.849 Y-56.732
N7740 X92.311 Y-56.68
N7745 X90.773 Y-56.637
N7750 X89.234 Y-56.601
N7755 X87.695 Y-56.572
N7760 X86.156 Y-56.547
N7765 X84.617 Y-56.526
N7770 X83.078 Y-56.509
N7775 X81.539 Y-56.495
N7780 X80. Y-56.483
N7785 X78.461 Y-56.473
N7790 X76.754 Y-56.464
N7795 X76.42 Y-56.479
N7800 X76.089 Y-56.528
N7805 X75.765 Y-56.611
N7810 X74.413 Y-57.028
N7815 X73.874 Y-57.209
N7820 X73.334 Y-57.406
N7825 X70.636 Y-58.475
N7830 X70.097 Y-58.716
N7835 X69.557 Y-58.961
N7840 X68.777 Y-59.341
N7845 X67.399 Y-60.015
N7850 X66.859 Y-60.295
N7855 X66.319 Y-60.59
N7860 X65.78 Y-60.89
N7865 X63.621 Y-62.162
N7870 X63.082 Y-62.516
N7875 X62.542 Y-62.878
N7880 X62.186 Y-63.12
N7885 X60.613 Y-64.219
N7890 G3 X60.256 Y-66.739 Z-20.8 I1.082 J-1.438
N7895 X61.821 Y-67.453 I1.439 J1.081
N7900 G1 X114.16 Y-63.786
N7905 G3 X115.605 Y-62.87 I-0.126 J1.796
N7910 X114.915 Y-60.421 Z-21. I-1.57 J0.88
N7915 G1 X113.265 Y-59.57
N7920 X112.81 Y-59.341
N7925 X112.185 Y-59.052
N7930 X111.641 Y-58.801
N7935 X109.487 Y-57.895
N7940 X109.047 Y-57.722
N7945 X108.408 Y-57.483
N7950 X107.869 Y-57.289
N7955 X105.71 Y-56.572
N7960 X104.631 Y-56.25
N7965 X104.069 Y-56.103
N7970 X102.473 Y-55.706
N7975 X101.933 Y-55.575
N7980 X100.854 Y-55.328
N7985 X99.775 Y-55.146
N7990 X97.616 Y-54.785
N7995 X97.077 Y-54.708
N8000 X95.458 Y-54.564
N8005 X93.839 Y-54.421
N8010 X93.299 Y-54.393
N8015 X92.76 Y-54.375
N8020 X92.22 Y-54.362
N8025 X90.062 Y-54.339
N8030 X89.522 Y-54.35
N8035 X88.983 Y-54.363
N8040 X88.443 Y-54.391
N8045 X86.824 Y-54.5
N8050 X86.285 Y-54.538
N8055 X85.205 Y-54.625
N8060 X84.666 Y-54.702
N8065 X81.968 Y-55.095
N8070 X81.428 Y-55.185
N8075 X80.349 Y-55.421
N8080 X78.191 Y-55.909
N8085 X77.651 Y-56.04
N8090 X77.41 Y-56.103
N8095 X75.765 Y-56.611
N8100 G3 X75.102 Y-57.02 I0.591 J-1.7
N8105 G1 X74.983 Y-57.136 Z-20.992
N8110 X74.864 Y-57.25 Z-20.969
N8115 X74.748 Y-57.363 Z-20.931
N8120 X74.635 Y-57.473 Z-20.878
N8125 X74.526 Y-57.579 Z-20.811
N8130 X74.422 Y-57.68 Z-20.73
N8135 X74.324 Y-57.776 Z-20.636
N8140 X74.232 Y-57.865 Z-20.53
N8145 X74.148 Y-57.947 Z-20.413
N8150 X74.071 Y-58.021 Z-20.285
N8155 X74.004 Y-58.086 Z-20.148
N8160 X73.946 Y-58.143 Z-20.002
N8165 X73.898 Y-58.19 Z-19.85
N8170 X73.86 Y-58.226 Z-19.693
N8175 X73.833 Y-58.253 Z-19.531
N8180 X73.816 Y-58.269 Z-19.366
N8185 X73.811 Y-58.274 Z-19.2
N8190 G0 Z5.
N8195 G1 X127.726 Y-0.401 F5000.
N8200 G0 Z-17.4
N8205 G1 Z-19.2 F1720.
N8210 X127.73 Y-0.407 Z-19.366
N8215 X127.745 Y-0.425 Z-19.531
N8220 X127.768 Y-0.455 Z-19.693
N8225 X127.8 Y-0.497 Z-19.85
N8230 X127.842 Y-0.55 Z-20.002
N8235 X127.891 Y-0.613 Z-20.148
N8240 X127.949 Y-0.687 Z-20.285
N8245 X128.014 Y-0.771 Z-20.413
N8250 X128.086 Y-0.864 Z-20.53
N8255 X128.165 Y-0.965 Z-20.636
N8260 X128.249 Y-1.073 Z-20.73
N8265 X128.339 Y-1.188 Z-20.811
N8270 X128.432 Y-1.308 Z-20.878
N8275 X128.529 Y-1.432 Z-20.931
N8280 X128.628 Y-1.56 Z-20.969
N8285 X128.729 Y-1.69 Z-20.992
N8290 X128.831 Y-1.821 Z-21.
N8295 G3 X129.453 Y-2.302 I1.249 J0.972
N8300 G1 X135.388 Y-4.624
N8305 X135.88 Y-4.824
N8310 X137.087 Y-5.364
N8315 X142.403 Y-7.75
N8320 X142.942 Y-7.995
N8325 X143.086 Y-8.063
N8330 X143.482 Y-8.257
N8335 X148.44 Y-10.78
N8340 G3 X149.201 Y-10.949 I0.76 J1.632
N8345 G1 X149.367 Z-20.992
N8350 X149.532 Z-20.969
N8355 X149.693 Z-20.931
N8360 X149.851 Z-20.878
N8365 X150.003 Z-20.811
N8370 X150.148 Z-20.73
N8375 X150.286 Y-10.948 Z-20.636
N8380 X150.414 Z-20.53
N8385 X150.531 Z-20.413
N8390 X150.637 Z-20.285
N8395 X150.731 Z-20.148
N8400 X150.812 Z-20.002
N8405 X150.879 Z-19.85
N8410 X150.932 Z-19.693
N8415 X150.97 Z-19.531
N8420 X150.993 Z-19.366
N8425 X151.001 Z-19.2
N8430 G0 Z15.

(2D Adaptive11)
N8435 G1 X99.374 Y-28.753 F5000.
N8440 G0 Z15.
N8445 Z5.
N8450 Z2.5
N8455 G1 Z-6. F573.33
N8460 Y-28.903 F1720.
N8465 X99.395 Y-29.052
N8470 X99.429 Y-29.198
N8475 X99.473 Y-29.341
N8480 X99.523 Y-29.483
N8485 X99.578 Y-29.622
N8490 X99.637 Y-29.76
N8495 X99.701 Y-29.896
N8500 X99.768 Y-30.03
N8505 X99.838 Y-30.162
N8510 X99.912 Y-30.293
N8515 X99.989 Y-30.422
N8520 X100.068 Y-30.549
N8525 X100.151 Y-30.674
N8530 X100.235 Y-30.798
N8535 X100.322 Y-30.921
N8540 X100.411 Y-31.041
N8545 X100.503 Y-31.16
N8550 X100.596 Y-31.278
N8555 X100.691 Y-31.394
N8560 X100.788 Y-31.508
N8565 X100.886 Y-31.621
N8570 X100.987 Y-31.733
N8575 X101.089 Y-31.843
N8580 X101.193 Y-31.951
N8585 X101.298 Y-32.058
N8590 X101.405 Y-32.163
N8595 X101.513 Y-32.267
N8600 X101.623 Y-32.369
N8605 X101.735 Y-32.469
N8610 X101.847 Y-32.568
N8615 X101.961 Y-32.665
N8620 X102.078 Y-32.76
N8625 X102.196 Y-32.853
N8630 X102.315 Y-32.943
N8635 X102.437 Y-33.032
N8640 X102.559 Y-33.118
N8645 X102.683 Y-33.202
N8650 X102.809 Y-33.284
N8655 X102.936 Y-33.363
N8660 X103.066 Y-33.439
N8665 X103.197 Y-33.513
N8670 X103.329 Y-33.583
N8675 X103.463 Y-33.651
N8680 X103.598 Y-33.717
N8685 X103.734 Y-33.778
N8690 X103.873 Y-33.836
N8695 X104.013 Y-33.891
N8700 X104.369 Y-33.982
N8705 X104.737 Y-34.002
N8710 X105.101 Y-33.952
N8715 X105.45 Y-33.833
N8720 X105.768 Y-33.649
N8725 X106.046 Y-33.407
N8730 X106.272 Y-33.116
N8735 X106.438 Y-32.788
N8740 X106.537 Y-32.433
N8745 G0 Z5.
N8750 G1 X69.438 Y-31.329 F5000.
N8755 G0 Z2.5
N8760 G1 Z-6. F573.33
N8765 X69.503 Y-31.775 F1720.
N8770 X69.51 Y-31.812
N8775 X69.608 Y-31.926
N8780 X69.71 Y-32.035
N8785 X69.817 Y-32.14
N8790 X69.928 Y-32.242
N8795 X70.041 Y-32.34
N8800 X70.157 Y-32.435
N8805 X70.275 Y-32.528
N8810 X70.395 Y-32.618
N8815 X70.517 Y-32.705
N8820 X70.641 Y-32.79
N8825 X70.766 Y-32.872
N8830 X70.893 Y-32.953
N8835 X71.021 Y-33.031
N8840 X71.15 Y-33.106
N8845 X71.281 Y-33.18
N8850 X71.413 Y-33.252
N8855 X71.546 Y-33.321
N8860 X71.68 Y-33.389
N8865 X71.814 Y-33.455
N8870 X71.95 Y-33.519
N8875 X72.087 Y-33.581
N8880 X72.224 Y-33.641
N8885 X72.362 Y-33.7
N8890 X72.501 Y-33.757
N8895 X72.64 Y-33.812
N8900 X72.78 Y-33.866
N8905 X72.921 Y-33.918
N8910 X73.062 Y-33.969
N8915 X73.203 Y-34.019
N8920 X73.345 Y-34.067
N8925 X73.488 Y-34.114
N8930 X73.631 Y-34.16
N8935 X73.774 Y-34.205
N8940 X73.917 Y-34.249
N8945 X74.061 Y-34.291
N8950 X74.206 Y-34.333
N8955 X74.355 Y-34.375
N8960 X74.507 Y-34.416
N8965 X74.664 Y-34.458
N8970 X74.824 Y-34.499
N8975 X74.988 Y-34.54
N8980 X75.157 Y-34.581
N8985 X75.33 Y-34.621
N8990 X75.507 Y-34.661
N8995 X75.69 Y-34.701
N9000 X75.877 Y-34.74
N9005 X76.07 Y-34.779
N9010 X76.268 Y-34.818
N9015 X76.472 Y-34.856
N9020 X76.682 Y-34.894
N9025 X76.898 Y-34.931
N9030 X77.121 Y-34.968
N9035 X77.403 Y-35.012
N9040 X77.744 Y-35.064
N9045 X78.1 Y-35.114
N9050 X78.472 Y-35.165
N9055 X78.863 Y-35.214
N9060 X79.273 Y-35.263
N9065 X79.705 Y-35.312
N9070 X80.161 Y-35.36
N9075 X80.643 Y-35.407
N9080 X81.154 Y-35.453
N9085 X81.699 Y-35.498
N9090 X82.627 Y-35.568
N9095 X84.162 Y-35.673
N9100 X85.698 Y-35.77
N9105 X87.228 Y-35.942
N9110 X88.726 Y-36.294
N9115 X89.001 Y-36.382
N9120 X90.462 Y-36.867
N9125 X91.899 Y-37.416
N9130 X93.922 Y-38.239
N9135 X94.376 Y-38.419
N9140 X94.747 Y-38.564
N9145 X95.051 Y-38.68
N9150 X95.315 Y-38.779
N9155 X95.552 Y-38.865
N9160 X95.77 Y-38.943
N9165 X95.979 Y-39.015
N9170 X96.193 Y-39.088
N9175 X96.398 Y-39.156
N9180 X96.589 Y-39.218
N9185 X96.771 Y-39.275
N9190 X96.943 Y-39.328
N9195 X97.108 Y-39.378
N9200 X97.265 Y-39.424
N9205 X97.418 Y-39.467
N9210 X97.564 Y-39.507
N9215 X97.709 Y-39.546
N9220 X97.855 Y-39.584
N9225 X98.004 Y-39.621
N9230 X98.149 Y-39.657
N9235 X98.295 Y-39.691
N9240 X98.442 Y-39.725
N9245 X98.588 Y-39.757
N9250 X98.735 Y-39.788
N9255 X98.882 Y-39.818
N9260 X99.029 Y-39.846
N9265 X99.177 Y-39.874
N9270 X99.324 Y-39.9
N9275 X99.472 Y-39.924
N9280 X99.621 Y-39.947
N9285 X99.769 Y-39.969
N9290 X99.918 Y-39.989
N9295 X100.067 Y-40.008
N9300 X100.216 Y-40.025
N9305 X100.365 Y-40.041
N9310 X100.514 Y-40.055
N9315 X100.663 Y-40.068
N9320 X100.813 Y-40.079
N9325 X100.963 Y-40.089
N9330 X101.113 Y-40.097
N9335 X101.262 Y-40.103
N9340 X101.412 Y-40.107
N9345 X101.562 Y-40.11
N9350 X101.712
N9355 X101.862
N9360 X102.012 Y-40.107
N9365 X102.162 Y-40.103
N9370 X102.312 Y-40.096
N9375 X102.462 Y-40.088
N9380 X102.612 Y-40.078
N9385 X102.761 Y-40.066
N9390 X102.91 Y-40.052
N9395 X103.06 Y-40.035
N9400 X103.208 Y-40.017
N9405 X103.357 Y-39.997
N9410 X103.505 Y-39.975
N9415 X103.654 Y-39.951
N9420 X103.801 Y-39.925
N9425 X103.949 Y-39.897
N9430 X104.368 Y-39.772
N9435 X104.762 Y-39.579
N9440 X105.117 Y-39.323
N9445 X105.425 Y-39.011
N9450 X105.676 Y-38.652
N9455 X105.863 Y-38.256
N9460 X105.981 Y-37.834
N9465 X106.028 Y-37.399
N9470 X106.041 Y-36.799
N9475 X106.059 Y-36.259
N9480 X106.08 Y-35.72
N9485 X106.135 Y-35.181
N9490 X106.205 Y-34.641
N9495 X106.284 Y-34.102
N9500 X106.528 Y-32.484
N9505 X106.537 Y-32.433
N9510 G3 X104.593 Y-30.15 I-1.98 J0.284
N9515 G1 X71.527 Y-29.56
N9520 G3 X69.503 Y-31.775 I-0.036 J-2.
N9525 G1 X69.527 Y-31.945
N9530 X69.595 Y-32.484
N9535 X69.658 Y-33.023
N9540 X69.675 Y-33.186
N9545 X69.711 Y-33.428
N9550 X69.735 Y-33.576
N9555 X69.764 Y-33.723
N9560 X69.799 Y-33.869
N9565 X69.838 Y-34.014
N9570 X69.883 Y-34.157
N9575 X69.931 Y-34.299
N9580 X69.984 Y-34.439
N9585 X70.041 Y-34.578
N9590 X70.101 Y-34.715
N9595 X70.165 Y-34.851
N9600 X70.232 Y-34.985
N9605 X70.302 Y-35.118
N9610 X70.376 Y-35.249
N9615 X70.452 Y-35.378
N9620 X70.531 Y-35.506
N9625 X70.612 Y-35.631
N9630 X70.696 Y-35.756
N9635 X70.782 Y-35.878
N9640 X70.871 Y-35.999
N9645 X70.962 Y-36.119
N9650 X71.055 Y-36.236
N9655 X71.15 Y-36.353
N9660 X71.247 Y-36.467
N9665 X71.346 Y-36.58
N9670 X71.446 Y-36.691
N9675 X71.549 Y-36.801
N9680 X71.652 Y-36.909
N9685 X71.758 Y-37.016
N9690 X71.865 Y-37.121
N9695 X71.974 Y-37.224
N9700 X72.083 Y-37.326
N9705 X72.195 Y-37.427
N9710 X72.307 Y-37.526
N9715 X72.421 Y-37.624
N9720 X72.536 Y-37.72
N9725 X72.652 Y-37.815
N9730 X72.77 Y-37.908
N9735 X72.888 Y-38.
N9740 X73.007 Y-38.091
N9745 X73.128 Y-38.181
N9750 X73.249 Y-38.269
N9755 X73.372 Y-38.356
N9760 X73.495 Y-38.441
N9765 X73.619 Y-38.525
N9770 X73.744 Y-38.608
N9775 X73.87 Y-38.69
N9780 X73.996 Y-38.771
N9785 X74.124 Y-38.85
N9790 X74.252 Y-38.928
N9795 X74.38 Y-39.005
N9800 X74.51 Y-39.081
N9805 X74.64 Y-39.155
N9810 X74.771 Y-39.229
N9815 X74.902 Y-39.301
N9820 X75.034 Y-39.373
N9825 X75.166 Y-39.443
N9830 X75.3 Y-39.512
N9835 X75.433 Y-39.58
N9840 X75.567 Y-39.648
N9845 X75.703 Y-39.715
N9850 X75.843 Y-39.782
N9855 X75.986 Y-39.85
N9860 X76.131 Y-39.917
N9865 X76.28 Y-39.985
N9870 X76.433 Y-40.053
N9875 X76.59 Y-40.122
N9880 X76.751 Y-40.191
N9885 X76.917 Y-40.261
N9890 X77.091 Y-40.333
N9895 X77.301 Y-40.418
N9900 X77.518 Y-40.503
N9905 X77.743 Y-40.59
N9910 X78.195 Y-40.761
N9915 X79.638 Y-41.295
N9920 X79.729 Y-41.328
N9925 G3 X81.529 Y-37.813 I0.616 J1.903
N9930 G1 X72.854 Y-31.443
N9935 G3 X69.675 Y-33.186 I-1.184 J-1.612
N9940 G1 X69.715 Y-33.59
N9945 X69.855 Y-35.181
N9950 X69.902 Y-35.72
N9955 X69.944 Y-36.259
N9960 X69.973 Y-36.799
N9965 X69.972 Y-37.095
N9970 X69.991 Y-37.49
N9975 X70.048 Y-37.93
N9980 X70.15 Y-38.418
N9985 X70.309 Y-38.953
N9990 X70.863 Y-40.388
N9995 X70.93 Y-41.926
N10000 X70.59 Y-43.427
N10005 X70.006 Y-44.851
N10010 X69.243 Y-46.188
N10015 X69.098 Y-46.471
N10020 X68.981 Y-46.766
N10025 X68.891 Y-47.07
N10030 X68.499 Y-48.664
N10035 X68.349 Y-49.203
N10040 X68.185 Y-49.742
N10045 X68.097 Y-50.003
N10050 X67.008 Y-52.978
N10055 X66.779 Y-53.517
N10060 X66.479 Y-54.149
N10065 X66.263 Y-54.596
N10070 X65.401 Y-56.335
N10075 X65.191 Y-56.753
N10080 X64.862 Y-57.362
N10085 X64.573 Y-57.832
N10090 X63.19 Y-59.989
N10095 X62.705 Y-60.72
N10100 X62.459 Y-61.068
N10105 X61.59 Y-62.147
N10110 X60.548 Y-63.436
N10115 X60.275 Y-63.765
N10120 X59.802 Y-64.304
N10125 X59.469 Y-64.652
N10130 X58.733 Y-65.383
N10135 X57.645 Y-66.461
N10140 X57.462 Y-66.642
N10145 G3 X59.048 Y-70.012 I1.453 J-1.374
N10150 G1 X117.476 Y-66.126
N10155 G3 X118.598 Y-62.572 I-0.133 J1.996
N10160 G1 X118.248 Y-62.311
N10165 X118.035 Y-62.147
N10170 X117.709 Y-61.892
N10175 X116.082 Y-60.529
N10180 X115.552 Y-60.075
N10185 X115.459 Y-59.989
N10190 X115.013 Y-59.559
N10195 X114.91 Y-59.45
N10200 X114.473 Y-58.985
N10205 X113.395 Y-57.817
N10210 X112.92 Y-57.293
N10215 X112.316 Y-56.525
N10220 X112.089 Y-56.214
N10225 X110.941 Y-54.596
N10230 X110.699 Y-54.253
N10235 X110.58 Y-54.057
N10240 X110.159 Y-53.342
N10245 X109.955 Y-52.978
N10250 X109.081 Y-51.336
N10255 X108.811 Y-50.821
N10260 X108.562 Y-50.282
N10265 X108.349 Y-49.742
N10270 X107.532 Y-47.585
N10275 X107.463 Y-47.392
N10280 X107.352 Y-47.046
N10285 X107.185 Y-46.506
N10290 X106.924 Y-45.424
N10295 X106.668 Y-44.349
N10300 X106.428 Y-43.27
N10305 X106.384 Y-42.988
N10310 X106.285 Y-42.192
N10315 X106.056 Y-40.034
N10320 X106.025 Y-39.495
N10325 X106. Y-38.956
N10330 X106.006 Y-38.416
N10335 X106.028 Y-37.399
N10340 G3 X104.044 Y-35.425 I-2. J-0.026
N10345 G1 X71.987 Y-35.171
N10350 G3 X69.972 Y-37.095 I-0.016 J-2.
N10355 G1 Y-37.338
N10360 X69.967 Y-37.877
N10365 X69.92 Y-40.034
N10370 X69.898 Y-40.574
N10375 X69.874 Y-41.113
N10380 X69.743 Y-42.192
N10385 X69.458 Y-44.349
N10390 X69.372 Y-44.888
N10395 X69.283 Y-45.428
N10400 X69.176 Y-45.906
N10405 X68.891 Y-47.07
N10410 G0 Z15.
N10415 G1 X89.235 Y-19.084 F5000.
N10420 G0 Z5.
N10425 Z2.5
N10430 G1 Z-6. F573.33
N10435 Y-18.934 F1720.
N10440 X89.206 Y-18.786
N10445 X89.166 Y-18.642
N10450 X89.117 Y-18.5
N10455 X89.063 Y-18.36
N10460 X89.002 Y-18.223
N10465 X88.937 Y-18.088
N10470 X88.867 Y-17.955
N10475 X88.794 Y-17.824
N10480 X88.717 Y-17.696
N10485 X88.636 Y-17.569
N10490 X88.552 Y-17.445
N10495 X88.466 Y-17.322
N10500 X88.376 Y-17.202
N10505 X88.283 Y-17.084
N10510 X88.188 Y-16.968
N10515 X88.091 Y-16.854
N10520 X87.991 Y-16.742
N10525 X87.889 Y-16.632
N10530 X87.785 Y-16.524
N10535 X87.679 Y-16.417
N10540 X87.572 Y-16.313
N10545 X87.463 Y-16.21
N10550 X87.352 Y-16.109
N10555 X87.24 Y-16.009
N10560 X87.126 Y-15.912
N10565 X87.011 Y-15.815
N10570 X86.894 Y-15.721
N10575 X86.777 Y-15.628
N10580 X86.658 Y-15.536
N10585 X86.538 Y-15.446
N10590 X86.417 Y-15.358
N10595 X86.295 Y-15.271
N10600 X86.172 Y-15.185
N10605 X86.048 Y-15.101
N10610 X85.923 Y-15.018
N10615 X85.797 Y-14.936
N10620 X85.67 Y-14.855
N10625 X85.543 Y-14.776
N10630 X85.415 Y-14.699
N10635 X85.286 Y-14.622
N10640 X85.156 Y-14.546
N10645 X85.026 Y-14.472
N10650 X84.895 Y-14.399
N10655 X84.763 Y-14.327
N10660 X84.631 Y-14.256
N10665 X84.498 Y-14.187
N10670 X84.365 Y-14.118
N10675 X84.231 Y-14.051
N10680 X84.096 Y-13.984
N10685 X83.961 Y-13.919
N10690 X83.825 Y-13.855
N10695 X83.689 Y-13.793
N10700 X83.552 Y-13.731
N10705 X83.415 Y-13.67
N10710 X83.277 Y-13.611
N10715 X83.139 Y-13.552
N10720 X82.998 Y-13.493
N10725 X82.853 Y-13.434
N10730 X82.704 Y-13.375
N10735 X82.551 Y-13.316
N10740 X82.394 Y-13.256
N10745 X82.233 Y-13.196
N10750 X82.068 Y-13.136
N10755 X81.898 Y-13.075
N10760 X81.723 Y-13.014
N10765 X81.544 Y-12.953
N10770 X81.359 Y-12.892
N10775 X81.168 Y-12.831
N10780 X80.973 Y-12.769
N10785 X80.771 Y-12.707
N10790 X80.563 Y-12.645
N10795 X80.348 Y-12.582
N10800 X80.127 Y-12.519
N10805 X79.898 Y-12.456
N10810 X79.662 Y-12.393
N10815 X79.418 Y-12.33
N10820 X79.165 Y-12.266
N10825 X78.903 Y-12.202
N10830 X78.631 Y-12.138
N10835 X78.35 Y-12.074
N10840 X78.09 Y-12.016
N10845 X77.85 Y-11.965
N10850 X77.602 Y-11.914
N10855 X77.345 Y-11.863
N10860 X77.079 Y-11.813
N10865 X76.804 Y-11.762
N10870 X76.518 Y-11.712
N10875 X76.221 Y-11.663
N10880 X75.912 Y-11.613
N10885 X75.591 Y-11.564
N10890 X75.256 Y-11.515
N10895 X74.906 Y-11.467
N10900 X74.54 Y-11.42
N10905 X74.157 Y-11.373
N10910 X73.755 Y-11.327
N10915 X73.333 Y-11.281
N10920 X72.887 Y-11.236
N10925 X72.416 Y-11.193
N10930 X71.918 Y-11.15
N10935 X71.387 Y-11.108
N10940 X71.001 Y-11.081
N10945 X70.737 Y-11.064
N10950 X70.463 Y-11.049
N10955 X70.179 Y-11.035
N10960 X69.885 Y-11.023
N10965 X69.58 Y-11.013
N10970 X69.43 Y-11.009
N10975 X69.28 Y-11.006
N10980 X69.129 Y-11.004
N10985 X68.976 Y-11.003
N10990 X68.818 Y-11.004
N10995 X68.657 Y-11.006
N11000 X68.492 Y-11.009
N11005 X68.324 Y-11.013
N11010 X68.151 Y-11.018
N11015 X68.001 Y-11.024
N11020 X67.851 Y-11.032
N11025 X67.702 Y-11.041
N11030 X67.552 Y-11.052
N11035 X67.402 Y-11.064
N11040 X67.253 Y-11.077
N11045 X67.104 Y-11.092
N11050 X66.955 Y-11.109
N11055 X66.806 Y-11.127
N11060 X66.657 Y-11.146
N11065 X66.509 Y-11.167
N11070 X66.36 Y-11.191
N11075 X66.213 Y-11.216
N11080 X66.065 Y-11.243
N11085 X65.918 Y-11.273
N11090 X65.771 Y-11.304
N11095 X65.625 Y-11.336
N11100 X65.479 Y-11.371
N11105 X65.333 Y-11.408
N11110 X65.189 Y-11.447
N11115 X65.045 Y-11.489
N11120 X64.901 Y-11.533
N11125 X64.759 Y-11.579
N11130 X64.617 Y-11.628
N11135 X64.476 Y-11.679
N11140 X64.335 Y-11.731
N11145 X64.196 Y-11.787
N11150 X64.058 Y-11.846
N11155 X63.921 Y-11.907
N11160 X63.785 Y-11.971
N11165 X63.651 Y-12.038
N11170 X63.518 Y-12.107
N11175 X63.386 Y-12.178
N11180 X63.256 Y-12.253
N11185 X63.128 Y-12.331
N11190 X62.839 Y-12.556
N11195 X62.595 Y-12.829
N11200 X62.404 Y-13.141
N11205 X62.273 Y-13.483
N11210 X62.206 Y-13.843
N11215 X62.205 Y-14.209
N11220 X62.27 Y-14.569
N11225 X62.399 Y-14.912
N11230 X62.587 Y-15.226
N11235 X63.098 Y-15.925
N11240 X63.294 Y-16.194
N11245 Z2.5
N11250 G0 Z5.
N11255 G1 X109.829 Y-23.234 F5000.
N11260 G0 Z2.5
N11265 G1 Z-6. F573.33
N11270 X110.131 Y-22.782 F1720.
N11275 X110.15 Y-22.75
N11280 X110.118 Y-22.603
N11285 X110.079 Y-22.458
N11290 X110.036 Y-22.315
N11295 X109.987 Y-22.173
N11300 X109.934 Y-22.032
N11305 X109.878 Y-21.893
N11310 X109.818 Y-21.756
N11315 X109.754 Y-21.62
N11320 X109.687 Y-21.486
N11325 X109.618 Y-21.353
N11330 X109.545 Y-21.222
N11335 X109.469 Y-21.092
N11340 X109.391 Y-20.964
N11345 X109.31 Y-20.838
N11350 X109.226 Y-20.713
N11355 X109.141 Y-20.59
N11360 X109.053 Y-20.469
N11365 X108.963 Y-20.349
N11370 X108.871 Y-20.23
N11375 X108.777 Y-20.113
N11380 X108.682 Y-19.997
N11385 X108.585 Y-19.883
N11390 X108.486 Y-19.77
N11395 X108.385 Y-19.659
N11400 X108.284 Y-19.549
N11405 X108.18 Y-19.44
N11410 X108.076 Y-19.332
N11415 X107.97 Y-19.226
N11420 X107.862 Y-19.121
N11425 X107.754 Y-19.018
N11430 X107.645 Y-18.915
N11435 X107.534 Y-18.814
N11440 X107.422 Y-18.714
N11445 X107.309 Y-18.615
N11450 X107.196 Y-18.517
N11455 X107.081 Y-18.42
N11460 X106.965 Y-18.325
N11465 X106.849 Y-18.23
N11470 X106.731 Y-18.137
N11475 X106.613 Y-18.045
N11480 X106.494 Y-17.953
N11485 X106.374 Y-17.863
N11490 X106.254 Y-17.774
N11495 X106.133 Y-17.686
N11500 X106.011 Y-17.598
N11505 X105.888 Y-17.512
N11510 X105.765 Y-17.426
N11515 X105.641 Y-17.342
N11520 X105.516 Y-17.259
N11525 X105.39 Y-17.177
N11530 X105.264 Y-17.095
N11535 X105.138 Y-17.015
N11540 X105.01 Y-16.936
N11545 X104.882 Y-16.857
N11550 X104.749 Y-16.777
N11555 X104.613 Y-16.697
N11560 X104.474 Y-16.615
N11565 X104.33 Y-16.533
N11570 X104.183 Y-16.45
N11575 X104.031 Y-16.366
N11580 X103.875 Y-16.281
N11585 X103.715 Y-16.195
N11590 X103.55 Y-16.109
N11595 X103.379 Y-16.021
N11600 X103.204 Y-15.932
N11605 X103.023 Y-15.842
N11610 X102.837 Y-15.751
N11615 X102.645 Y-15.659
N11620 X102.446 Y-15.565
N11625 X101.049 Y-14.921
N11630 X99.689 Y-14.2
N11635 X98.358 Y-13.427
N11640 X97.043 Y-12.628
N11645 X96.152 Y-12.082
N11650 X95.179 Y-11.491
N11655 X94.597 Y-11.143
N11660 X94.098 Y-10.85
N11665 X93.647 Y-10.59
N11670 X93.229 Y-10.353
N11675 X92.834 Y-10.132
N11680 X92.456 Y-9.925
N11685 X92.092 Y-9.729
N11690 X91.737 Y-9.542
N11695 X91.391 Y-9.362
N11700 X91.052 Y-9.188
N11705 X90.718 Y-9.021
N11710 X90.387 Y-8.858
N11715 X90.06 Y-8.7
N11720 X89.736 Y-8.546
N11725 X89.413 Y-8.396
N11730 X89.091 Y-8.249
N11735 X88.769 Y-8.105
N11740 X88.447 Y-7.964
N11745 X88.125 Y-7.825
N11750 X87.803 Y-7.69
N11755 X87.482 Y-7.557
N11760 X87.162 Y-7.428
N11765 X86.843 Y-7.301
N11770 X86.523 Y-7.178
N11775 X86.202 Y-7.056
N11780 X85.881 Y-6.937
N11785 X85.559 Y-6.82
N11790 X85.234 Y-6.706
N11795 X84.908 Y-6.593
N11800 X84.58 Y-6.482
N11805 X84.248 Y-6.373
N11810 X83.916 Y-6.266
N11815 X83.58 Y-6.161
N11820 X83.24 Y-6.057
N11825 X82.895 Y-5.955
N11830 X82.545 Y-5.854
N11835 X82.194 Y-5.755
N11840 X81.837 Y-5.658
N11845 X81.473 Y-5.561
N11850 X81.103 Y-5.466
N11855 X80.731 Y-5.373
N11860 X80.348 Y-5.28
N11865 X79.964 Y-5.19
N11870 X79.581 Y-5.104
N11875 X79.202 Y-5.021
N11880 X78.823 Y-4.941
N11885 X78.446 Y-4.864
N11890 X78.075 Y-4.791
N11895 X77.716 Y-4.724
N11900 X77.367 Y-4.661
N11905 X77.028 Y-4.602
N11910 X76.695 Y-4.547
N11915 X76.369 Y-4.496
N11920 X76.05 Y-4.448
N11925 X75.744 Y-4.404
N11930 X75.447 Y-4.364
N11935 X75.158 Y-4.327
N11940 X74.875 Y-4.293
N11945 X74.599 Y-4.261
N11950 X74.328 Y-4.233
N11955 X74.064 Y-4.207
N11960 X73.806 Y-4.183
N11965 X73.556 Y-4.162
N11970 X73.312 Y-4.144
N11975 X73.073 Y-4.127
N11980 X72.839 Y-4.113
N11985 X72.609 Y-4.101
N11990 X72.382 Y-4.09
N11995 X72.159 Y-4.081
N12000 X71.94 Y-4.074
N12005 X71.728 Y-4.069
N12010 X71.52 Y-4.066
N12015 X71.315 Y-4.064
N12020 X71.113 Y-4.063
N12025 X70.916 Y-4.064
N12030 X70.721 Y-4.066
N12035 X70.529 Y-4.07
N12040 X70.339 Y-4.075
N12045 X70.152 Y-4.082
N12050 X69.967 Y-4.089
N12055 X69.786 Y-4.098
N12060 X69.609 Y-4.108
N12065 X69.433 Y-4.119
N12070 X69.262 Y-4.131
N12075 X69.091 Y-4.145
N12080 X68.924 Y-4.159
N12085 X68.759 Y-4.174
N12090 X68.594 Y-4.191
N12095 X68.433 Y-4.208
N12100 X68.272 Y-4.227
N12105 X68.114 Y-4.246
N12110 X67.957 Y-4.267
N12115 X67.805 Y-4.288
N12120 X67.652 Y-4.31
N12125 X67.504 Y-4.333
N12130 X67.355 Y-4.356
N12135 X67.207 Y-4.381
N12140 X67.059 Y-4.407
N12145 X66.912 Y-4.434
N12150 X66.765 Y-4.462
N12155 X66.617 Y-4.492
N12160 X66.471 Y-4.523
N12165 X66.324 Y-4.555
N12170 X66.178 Y-4.588
N12175 X66.032 Y-4.622
N12180 X65.886 Y-4.658
N12185 X65.741 Y-4.695
N12190 X65.596 Y-4.734
N12195 X65.451 Y-4.773
N12200 X65.307 Y-4.815
N12205 X65.163 Y-4.857
N12210 X65.02 Y-4.901
N12215 X64.877 Y-4.947
N12220 X64.734 Y-4.994
N12225 X64.593 Y-5.043
N12230 X64.451 Y-5.093
N12235 X64.31 Y-5.144
N12240 X64.17 Y-5.197
N12245 X64.03 Y-5.252
N12250 X63.891 Y-5.308
N12255 X63.753 Y-5.366
N12260 X63.615 Y-5.425
N12265 X63.478 Y-5.486
N12270 X63.342 Y-5.549
N12275 X63.206 Y-5.614
N12280 X63.072 Y-5.68
N12285 X62.938 Y-5.747
N12290 X62.805 Y-5.817
N12295 X62.673 Y-5.888
N12300 X62.542 Y-5.961
N12305 X62.411 Y-6.035
N12310 X62.282 Y-6.111
N12315 X62.154 Y-6.189
N12320 X62.027 Y-6.269
N12325 X61.901 Y-6.351
N12330 X61.777 Y-6.434
N12335 X61.653 Y-6.519
N12340 X61.53 Y-6.606
N12345 X61.409 Y-6.694
N12350 X61.289 Y-6.784
N12355 X61.171 Y-6.876
N12360 X61.054 Y-6.97
N12365 X60.938 Y-7.066
N12370 X60.824 Y-7.163
N12375 X60.711 Y-7.262
N12380 X60.6 Y-7.363
N12385 X60.491 Y-7.465
N12390 X60.383 Y-7.569
N12395 X60.276 Y-7.675
N12400 X60.172 Y-7.782
N12405 X60.069 Y-7.891
N12410 X59.968 Y-8.002
N12415 X59.869 Y-8.115
N12420 X59.771 Y-8.229
N12425 X59.676 Y-8.345
N12430 X59.583 Y-8.462
N12435 X59.491 Y-8.581
N12440 X59.443 Y-8.646
N12445 X59.235 Y-8.984
N12450 X59.088 Y-9.352
N12455 X59.007 Y-9.74
N12460 X58.993 Y-10.136
N12465 X59.048 Y-10.528
N12470 X59.169 Y-10.905
N12475 X59.353 Y-11.256
N12480 X59.595 Y-11.57
N12485 X60.583 Y-12.646
N12490 X60.941 Y-13.041
N12495 X61.06 Y-13.184
N12500 X61.48 Y-13.734
N12505 X61.881 Y-14.261
N12510 X62.587 Y-15.226
N12515 G3 X63.82 Y-15.96 I1.572 J1.237
N12520 G1 X108.168 Y-23.586
N12525 G3 X110.131 Y-22.782 I0.339 J1.971
N12530 G1 X110.507 Y-22.218
N12535 X110.542 Y-22.166
N12540 X110.581 Y-22.102
N12545 X110.661 Y-21.975
N12550 X110.733 Y-21.843
N12555 X110.799 Y-21.708
N12560 X110.857 Y-21.57
N12565 X110.909 Y-21.43
N12570 X110.956 Y-21.287
N12575 X110.996 Y-21.142
N12580 X111.031 Y-20.997
N12585 X111.061 Y-20.85
N12590 X111.086 Y-20.702
N12595 X111.106 Y-20.553
N12600 X111.122 Y-20.404
N12605 X111.133 Y-20.254
N12610 X111.14 Y-20.104
N12615 X111.143 Y-19.954
N12620 X111.142 Y-19.804
N12625 X111.138 Y-19.655
N12630 X111.129 Y-19.505
N12635 X111.118 Y-19.355
N12640 X111.102 Y-19.206
N12645 X111.084 Y-19.057
N12650 X111.062 Y-18.909
N12655 X111.037 Y-18.761
N12660 X111.01 Y-18.613
N12665 X110.979 Y-18.467
N12670 X110.945 Y-18.32
N12675 X110.909 Y-18.175
N12680 X110.87 Y-18.03
N12685 X110.829 Y-17.886
N12690 X110.784 Y-17.742
N12695 X110.738 Y-17.6
N12700 X110.689 Y-17.458
N12705 X110.638 Y-17.317
N12710 X110.584 Y-17.177
N12715 X110.528 Y-17.038
N12720 X110.471 Y-16.899
N12725 X110.411 Y-16.762
N12730 X110.349 Y-16.625
N12735 X110.284 Y-16.49
N12740 X110.219 Y-16.355
N12745 X110.151 Y-16.221
N12750 X110.081 Y-16.088
N12755 X110.01 Y-15.956
N12760 X109.936 Y-15.825
N12765 X109.862 Y-15.696
N12770 X109.785 Y-15.566
N12775 X109.707 Y-15.438
N12780 X109.627 Y-15.311
N12785 X109.546 Y-15.185
N12790 X109.463 Y-15.06
N12795 X109.379 Y-14.936
N12800 X109.294 Y-14.813
N12805 X109.207 Y-14.69
N12810 X109.119 Y-14.569
N12815 X109.03 Y-14.448
N12820 X108.94 Y-14.328
N12825 X108.849 Y-14.209
N12830 X108.757 Y-14.09
N12835 X108.664 Y-13.972
N12840 X108.564 Y-13.847
N12845 X108.459 Y-13.719
N12850 X108.352 Y-13.588
N12855 X108.241 Y-13.456
N12860 X108.126 Y-13.321
N12865 X108.007 Y-13.183
N12870 X107.878 Y-13.035
N12875 X107.742 Y-12.882
N12880 X107.6 Y-12.726
N12885 X107.454 Y-12.566
N12890 X107.302 Y-12.403
N12895 X107.145 Y-12.236
N12900 X106.979 Y-12.062
N12905 X106.806 Y-11.884
N12910 X106.625 Y-11.701
N12915 X106.439 Y-11.515
N12920 X106.247 Y-11.325
N12925 X106.047 Y-11.131
N12930 X105.839 Y-10.932
N12935 X105.622 Y-10.728
N12940 X105.402 Y-10.523
N12945 X105.173 Y-10.314
N12950 X105.031 Y-10.185
N12955 G3 X102. Y-12.694 I-1.284 J-1.534
N12960 G1 X107.176 Y-21.968
N12965 G3 X110.542 Y-22.166 I1.746 J0.975
N12970 G1 X111.156 Y-21.257
N12975 X111.557 Y-20.719
N12980 X112.189 Y-19.888
N12985 X112.377 Y-19.642
N12990 X112.499 Y-19.465
N12995 X112.583 Y-19.341
N13000 X112.662 Y-19.214
N13005 X112.738 Y-19.084
N13010 X112.809 Y-18.952
N13015 X112.875 Y-18.818
N13020 X112.938 Y-18.681
N13025 X112.997 Y-18.543
N13030 X113.052 Y-18.404
N13035 X113.103 Y-18.263
N13040 X113.15 Y-18.12
N13045 X113.194 Y-17.977
N13050 X113.234 Y-17.832
N13055 X113.27 Y-17.687
N13060 X113.303 Y-17.54
N13065 X113.333 Y-17.393
N13070 X113.36 Y-17.246
N13075 X113.384 Y-17.098
N13080 X113.404 Y-16.949
N13085 X113.421 Y-16.8
N13090 X113.436 Y-16.651
N13095 X113.448 Y-16.501
N13100 X113.456 Y-16.352
N13105 X113.463 Y-16.202
N13110 X113.466 Y-16.052
N13115 X113.467 Y-15.902
N13120 X113.465 Y-15.752
N13125 X113.475 Y-15.367
N13130 X113.52 Y-14.985
N13135 X113.599 Y-14.608
N13140 X113.713 Y-14.241
N13145 X113.86 Y-13.885
N13150 X114.038 Y-13.544
N13155 X114.248 Y-13.221
N13160 X114.485 Y-12.919
N13165 X114.75 Y-12.64
N13170 X115.039 Y-12.386
N13175 X115.35 Y-12.159
N13180 X116.672 Y-11.371
N13185 X118.172 Y-11.025
N13190 X119.699 Y-10.837
N13195 X121.237 Y-10.78
N13200 X122.75 Y-10.828
N13205 X123.224 Y-10.809
N13210 X123.689 Y-10.722
N13215 X124.138 Y-10.57
N13220 X125.136 Y-10.149
N13225 X125.61 Y-9.956
N13230 X126.215 Y-9.736
N13235 X126.755 Y-9.557
N13240 X127.833 Y-9.257
N13245 X128.373 Y-9.108
N13250 X128.912 Y-8.962
N13255 X129.452 Y-8.822
N13260 X129.991 Y-8.695
N13265 X130.531 Y-8.607
N13270 X131.07 Y-8.523
N13275 X132.689 Y-8.295
N13280 X133.228 Y-8.223
N13285 X133.767 Y-8.179
N13290 X134.307 Y-8.141
N13295 X135.925 Y-8.123
N13300 X136.465 Y-8.118
N13305 X137.004 Y-8.12
N13310 X137.544 Y-8.123
N13315 X138.083 Y-8.173
N13320 X138.623 Y-8.224
N13325 X140.78 Y-8.483
N13330 X141.32 Y-8.573
N13335 X141.859 Y-8.665
N13340 X142.399 Y-8.799
N13345 X142.938 Y-8.934
N13350 X144.017 Y-9.209
N13355 X144.797 Y-9.417
N13360 X145.096 Y-9.498
N13365 X145.636 Y-9.689
N13370 X146.175 Y-9.888
N13375 X146.349 Y-9.956
N13380 X147.793 Y-10.532
N13385 X148.09 Y-10.651
N13390 Z2.5
N13395 G0 Z5.
N13400 G1 X112.377 Y-19.642 F5000.
N13405 G0 Z2.5
N13410 G1 Z-6. F573.33
N13415 X112.788 Y-19.104 F1720.
N13420 X113.217 Y-18.566
N13425 X113.268 Y-18.504
N13430 X113.692 Y-18.028
N13435 X113.808 Y-17.906
N13440 X114.347 Y-17.362
N13445 X115.426 Y-16.276
N13450 X115.834 Y-15.875
N13455 X115.965 Y-15.75
N13460 X116.449 Y-15.337
N13465 X116.505 Y-15.291
N13470 X117.044 Y-14.865
N13475 X117.825 Y-14.261
N13480 X118.663 Y-13.616
N13485 X119.202 Y-13.239
N13490 X119.742 Y-12.895
N13495 X120.145 Y-12.646
N13500 X121.36 Y-11.937
N13505 X121.99 Y-11.57
N13510 X122.439 Y-11.32
N13515 Z2.5
N13520 G0 Z5.
N13525 G1 X18.323 Y-1.152 F5000.
N13530 G0 Z2.5
N13535 G1 Z-6. F573.33
N13540 X18.863 Y-0.983 F1720.
N13545 X21.021 Y-0.36
N13550 X21.56 Y-0.205
N13555 X22.1 Y-0.061
N13560 X22.639 Y0.051
N13565 X23.179 Y0.157
N13570 X25.336 Y0.529
N13575 X26.415 Y0.704
N13580 X27.494 Y0.791
N13585 X29.652 Y0.919
N13590 X30.192 Y0.946
N13595 X30.731 Y0.97
N13600 X31.27 Y0.959
N13605 X31.81 Y0.939
N13610 X32.349 Y0.913
N13615 X33.968 Y0.829
N13620 X34.339 Y0.807
N13625 X35.047 Y0.757
N13630 X35.586 Y0.692
N13635 X36.126 Y0.608
N13640 X36.665 Y0.522
N13645 X38.283 Y0.257
N13650 X38.823 Y0.163
N13655 X40.346 Y-0.059
N13660 X40.612 Y-0.108
N13665 X40.788 Y-0.138
N13670 X40.969 Y-0.167
N13675 X41.155 Y-0.197
N13680 X41.346 Y-0.225
N13685 X41.542 Y-0.253
N13690 X41.779 Y-0.285
N13695 X42.032 Y-0.317
N13700 X42.293 Y-0.348
N13705 X42.563 Y-0.378
N13710 X42.844 Y-0.407
N13715 X43.134 Y-0.435
N13720 X43.439 Y-0.462
N13725 X43.753 Y-0.488
N13730 X44.079 Y-0.512
N13735 X44.463 Y-0.538
N13740 X44.843 Y-0.599
N13745 X45.216 Y-0.694
N13750 X45.578 Y-0.823
N13755 X45.927 Y-0.985
N13760 X46.26 Y-1.178
N13765 X46.574 Y-1.401
N13770 X46.866 Y-1.651
N13775 X47.134 Y-1.927
N13780 X47.331 Y-2.171
N13785 X47.573 Y-2.48
N13790 X47.851 Y-2.757
N13795 X48.16 Y-2.999
N13800 X48.497 Y-3.201
N13805 X48.533 Y-3.22
N13810 X50.691 Y-4.386
N13815 X51.015 Y-4.574
N13820 X51.899 Y-5.112
N13825 X53.928 Y-6.519
N13830 X54.223 Y-6.727
N13835 X55.007 Y-7.306
N13840 X55.546 Y-7.743
N13845 X57.704 Y-9.626
N13850 X58.063 Y-9.956
N13855 X58.243 Y-10.132
N13860 X58.607 Y-10.494
N13865 X59.595 Y-11.57
N13870 Z2.5
N13875 G0 Z5.
N13880 G1 X38.823 Y0.163 F5000.
N13885 G0 Z2.5
N13890 G1 Z-6. F573.33
N13895 X39.362 Y0.057 F1720.
N13900 X39.902 Y-0.066
N13905 X40.981 Y-0.365
N13910 X42.599 Y-0.819
N13915 X43.139 Y-0.975
N13920 X43.678 Y-1.16
N13925 X44.207 Y-1.345
N13930 X46.375 Y-2.222
N13935 X46.857 Y-2.421
N13940 G0 Z15.

(2D Adaptive6)
N13945 G1 X76.046 Y-19.85 F5000.
N13950 G0 Z15.
N13955 Z5.
N13960 Z2.5
N13965 G3 X68.965 Y-23.835 Z2.162 I-2.285 J-4.223 F573.33
N13970 X75.607 Y-28.498 Z1.824 I4.79 J-0.239
N13975 X76.945 Y-20.504 Z1.485 I-1.85 J4.419
N13980 X69.166 Y-22.743 Z1.147 I-3.184 J-3.571
N13985 X74.537 Y-28.787 Z0.809 I4.59 J-1.33
N13990 X77.667 Y-21.343 Z0.471 I-0.78 J4.708
N13995 X69.611 Y-21.731 Z0.132 I-3.906 J-2.732
N14000 X73.433 Y-28.822 Z-0.206 I4.145 J-2.342
N14005 X78.175 Y-22.323 Z-0.544 I0.323 J4.744
N14010 X70.275 Y-20.852 Z-0.882 I-4.413 J-1.753
N14015 X72.354 Y-28.603 Z-1.221 I3.482 J-3.221
N14020 X78.442 Y-23.389 Z-1.559 I1.401 J4.525
N14025 X71.12 Y-20.151 Z-1.897 I-4.681 J-0.688
N14030 X71.359 Y-28.143 Z-2.235 I2.637 J-3.921
N14035 X78.457 Y-24.484 Z-2.574 I2.396 J4.066
N14040 X72.101 Y-19.666 Z-2.912 I-4.696 J0.406
N14045 X70.499 Y-27.469 Z-3.25 I1.658 J-4.406
N14050 X78.22 Y-25.549 Z-3.588 I3.255 J3.393
N14055 X73.162 Y-19.421 Z-3.926 I-4.46 J1.47
N14060 X69.821 Y-26.619 Z-4.265 I0.597 J-4.652
N14065 X77.746 Y-26.527 Z-4.603 I3.934 J2.543
N14070 X74.248 Y-19.426 Z-4.941 I-3.987 J2.448
N14075 X69.358 Y-25.638 Z-5.279 I-0.487 J-4.647
N14080 X77.062 Y-27.366 Z-5.618 I4.397 J1.564
N14085 X75.299 Y-19.68 Z-5.956 I-3.304 J3.287
N14090 X69.134 Y-24.582 Z-6.294 I-1.538 J-4.393
N14095 X76.207 Y-28.023 Z-6.632 I4.621 J0.508
N14100 X76.259 Y-20.168 Z-6.971 I-2.449 J3.944
N14105 X69.159 Y-23.506 Z-7.309 I-2.498 J-3.906
N14110 X75.227 Y-28.464 Z-7.647 I4.596 J-0.567
N14115 X77.079 Y-20.861 Z-7.985 I-1.47 J4.385
N14120 X69.43 Y-22.469 Z-8.324 I-3.317 J-3.214
N14125 X74.176 Y-28.667 Z-8.662 I4.326 J-1.603
N14130 X77.714 Y-21.72 Z-9. I-0.42 J4.588
N14135 X69.931 Y-21.526 Z-9.338 I-3.953 J-2.356
N14140 X73.111 Y-28.622 Z-9.676 I3.826 J-2.546
N14145 X78.133 Y-22.699 Z-10.015 I0.645 J4.544
N14150 X70.632 Y-20.727 Z-10.353 I-4.372 J-1.377
N14155 X72.088 Y-28.335 Z-10.691 I3.125 J-3.345
N14160 X78.315 Y-23.744 Z-11.029 I1.667 J4.257
N14165 X71.496 Y-20.113 Z-11.368 I-4.554 J-0.333
N14170 X71.163 Y-27.822 Z-11.706 I2.263 J-3.959
N14175 X78.251 Y-24.799 Z-12.044 I2.592 J3.745
N14180 X72.473 Y-19.716 Z-12.382 I-4.491 J0.721
N14185 X70.384 Y-27.112 Z-12.721 I1.286 J-4.357
N14190 X77.948 Y-25.807 Z-13.059 I3.371 J3.036
N14195 X73.512 Y-19.555 Z-13.397 I-4.188 J1.729
N14200 X69.791 Y-26.245 Z-13.735 I0.248 J-4.518
N14205 X77.422 Y-26.714 Z-14.074 I3.964 J2.17
N14210 X74.556 Y-19.637 Z-14.412 I-3.663 J2.636
N14215 X69.415 Y-25.27 Z-14.75 I-0.796 J-4.436
N14220 X76.705 Y-27.474 Z-15.088 I4.34 J1.195
N14225 X75.549 Y-19.956 Z-15.426 I-2.947 J3.395
N14230 X69.275 Y-24.237 Z-15.765 I-1.788 J-4.118
N14235 X75.836 Y-28.045 Z-16.103 I4.48 J0.164
N14240 X76.438 Y-20.493 Z-16.441 I-2.078 J3.966
N14245 X69.375 Y-23.205 Z-16.779 I-2.677 J-3.581
N14250 X74.862 Y-28.4 Z-17.118 I4.38 J-0.868
N14255 X77.177 Y-21.217 Z-17.456 I-1.105 J4.321
N14260 X69.709 Y-22.227 Z-17.794 I-3.416 J-2.858
N14265 X73.837 Y-28.52 Z-18.132 I4.047 J-1.846
N14270 X77.728 Y-22.089 Z-18.471 I-0.081 J4.441
N14275 X70.257 Y-21.356 Z-18.809 I-3.966 J-1.987
N14280 X72.816 Y-28.402 Z-19.147 I3.499 J-2.717
N14285 X78.061 Y-23.06 Z-19.485 I0.939 J4.323
N14290 X70.988 Y-20.637 Z-19.824 I-4.3 J-1.017
N14295 X71.853 Y-28.053 Z-20.162 I2.769 J-3.435
N14300 X78.162 Y-24.077 Z-20.5 I1.902 J3.975
N14305 X69.348 I-4.407 J0.
N14310 X78.162 I4.407 J0.
N14315 G1 X78.167 Y-23.682 F1720.
N14320 X78.338 Y-22.11
N14325 X78.368 Y-22.029
N14330 X78.426 Y-21.855
N14335 X78.473 Y-21.658
N14340 X78.508 Y-21.44
N14345 X78.527 Y-21.201
N14350 X78.526 Y-20.943
N14355 X78.503 Y-20.668
N14360 X78.394 Y-20.244
N14365 X78.214 Y-19.846
N14370 X77.966 Y-19.485
N14375 X77.66 Y-19.173
N14380 X77.304 Y-18.919
N14385 X76.909 Y-18.73
N14390 X76.488 Y-18.613
N14395 X76.052 Y-18.572
N14400 X71.162 Y-18.534
N14405 X70.861 Y-18.547
N14410 X70.517 Y-18.589
N14415 X70.161 Y-18.662
N14420 X69.796 Y-18.768
N14425 X69.426 Y-18.909
N14430 X69.054 Y-19.086
N14435 X68.684 Y-19.3
N14440 X68.321 Y-19.551
N14445 X68.212 Y-19.64
N14450 X67.891 Y-19.949
N14455 X67.625 Y-20.305
N14460 X67.42 Y-20.699
N14465 X67.281 Y-21.122
N14470 X67.212 Y-21.561
N14475 X67.216 Y-22.006
N14480 X67.291 Y-22.444
N14485 X67.436 Y-22.865
N14490 G3 X69.837 Y-23.706 Z-20.3 I1.622 J0.781
N14495 X70.235 Y-23.446 I-0.779 J1.623
N14500 G1 X72.262 Y-21.694
N14505 G3 X72.883 Y-20.408 I-1.177 J1.362
N14510 X71.162 Y-18.534 Z-20.5 I-1.798 J0.075
N14515 G1 X70.919 Y-18.532
N14520 X70.381 Y-18.533
N14525 X69.842 Y-18.54
N14530 X69.303 Y-18.55
N14535 X68.226 Y-18.596
N14540 X67.957 Y-18.633
N14545 X67.687 Y-18.714
N14550 X67.418 Y-18.845
N14555 X67.283 Y-18.934
N14560 X67.148 Y-19.041
N14565 X67.092 Y-19.092
N14570 X66.963 Y-19.227
N14575 X66.857 Y-19.362
N14580 X66.698 Y-19.631
N14585 X66.61 Y-19.854
N14590 X66.567 Y-20.012
N14595 X66.538 Y-20.17
N14600 X66.523 Y-20.44
N14605 X66.548 Y-20.709
N14610 X66.61 Y-20.959
N14615 X66.726 Y-21.248
N14620 X67.687 Y-23.437
N14625 X67.893 Y-23.942
N14630 X68.099 Y-24.481
N14635 X68.611 Y-26.098
N14640 X68.95 Y-27.176
N14645 X69.118 Y-27.715
N14650 X69.202 Y-28.011
N14655 X69.339 Y-28.419
N14660 X69.473 Y-28.731
N14665 X69.71 Y-29.1
N14670 X70.004 Y-29.424
N14675 X70.349 Y-29.694
N14680 X70.734 Y-29.903
N14685 X71.148 Y-30.044
N14690 X71.58 Y-30.114
N14695 X72.018 Y-30.112
N14700 X72.449 Y-30.035
N14705 G3 X72.703 Y-28.278 I-0.283 J0.938
N14710 G1 X70.691 Y-26.958
N14715 G3 X69.202 Y-28.011 I-0.537 J-0.819
N14720 G1 X69.27 Y-28.253
N14725 X69.303 Y-28.381
N14730 X69.392 Y-28.792
N14735 X69.459 Y-29.062
N14740 X69.573 Y-29.331
N14745 X69.689 Y-29.522
N14750 X69.842 Y-29.713
N14755 X70.004 Y-29.87
N14760 X70.192 Y-30.013
N14765 X70.381 Y-30.121
N14770 X70.65 Y-30.229
N14775 X70.919 Y-30.29
N14780 X71.189 Y-30.309
N14785 X71.458 Y-30.288
N14790 X71.997 Y-30.155
N14795 X73.075 Y-29.87
N14800 X73.613 Y-29.737
N14805 X74.152 Y-29.625
N14810 X74.69 Y-29.515
N14815 X77.384 Y-29.014
N14820 X77.652 Y-28.95
N14825 X77.981 Y-28.843
N14830 X78.316 Y-28.703
N14835 X78.654 Y-28.53
N14840 X78.99 Y-28.321
N14845 X79.436 Y-27.992
N14850 X79.998 Y-27.503
N14855 X80.501 Y-26.988
N14860 X80.951 Y-26.447
N14865 X81.35 Y-25.882
N14870 X81.679 Y-25.324
N14875 X81.968 Y-24.731
N14880 X82.192 Y-24.157
N14885 X82.374 Y-23.554
N14890 X82.498 Y-22.975
N14895 X82.578 Y-22.374
N14900 X82.607 Y-21.803
N14905 X82.59 Y-21.216
N14910 X82.582 Y-21.146
N14915 X82.505 Y-20.737
N14920 X82.364 Y-20.344
N14925 X82.165 Y-19.978
N14930 X81.911 Y-19.648
N14935 X81.609 Y-19.36
N14940 X81.265 Y-19.124
N14945 X80.89 Y-18.943
N14950 X80.49 Y-18.823
N14955 X80.077 Y-18.766
N14960 X77.923 Y-18.641
N14965 X76.845 Y-18.586
N14970 X76.306 Y-18.574
N14975 X76.052 Y-18.572
N14980 G3 X74.302 Y-20.419 Z-20.3 I0.049 J-1.799
N14985 G1 X74.308 Y-20.527
N14990 X74.321 Y-20.635
N14995 X75.336 Y-27.497
N15000 X75.337 Y-27.503
N15005 G3 X77.116 Y-29.034 Z-20.481 I1.78 J0.269
N15010 X77.384 Y-29.014 Z-20.5 I0. J1.8
N15015 G1 X78.58 Y-28.792
N15020 X79. Y-28.715
N15025 X79.539 Y-28.632
N15030 X80.077 Y-28.565
N15035 X80.616 Y-28.502
N15040 X80.912 Y-28.469
N15045 X81.338 Y-28.401
N15050 X81.71 Y-28.31
N15055 X82.093 Y-28.183
N15060 X82.504 Y-28.009
N15065 X82.923 Y-27.79
N15070 X83.339 Y-27.528
N15075 X83.763 Y-27.212
N15080 X84.183 Y-26.842
N15085 X84.587 Y-26.425
N15090 X84.961 Y-25.97
N15095 X85.294 Y-25.491
N15100 X85.583 Y-24.995
N15105 X85.832 Y-24.476
N15110 X86.031 Y-23.957
N15115 X86.192 Y-23.412
N15120 X86.303 Y-22.88
N15125 X86.374 Y-22.324
N15130 X86.398 Y-21.789
N15135 X86.379 Y-21.238
N15140 X86.294 Y-20.821
N15145 X86.141 Y-20.424
N15150 X85.923 Y-20.058
N15155 X85.646 Y-19.735
N15160 X85.319 Y-19.463
N15165 X84.951 Y-19.25
N15170 X84.552 Y-19.102
N15175 X84.133 Y-19.023
N15180 X83.848 Y-18.994
N15185 X82.771 Y-18.924
N15190 X80.077 Y-18.766
N15195 G3 X78.236 Y-20.522 Z-20.3 I-0.042 J-1.8
N15200 X78.248 Y-20.783 I1.799 J-0.044
N15205 G1 X78.982 Y-26.81
N15210 X78.992 Y-26.891 Z-20.306
N15215 G3 X80.912 Y-28.469 Z-20.5 I1.787 J0.217
N15220 G1 X84.387 Y-28.087
N15225 X84.926 Y-28.03
N15230 X85.075 Y-28.013
N15235 X85.411 Y-27.948
N15240 X85.774 Y-27.846
N15245 X86.156 Y-27.705
N15250 X86.543 Y-27.526
N15255 X86.939 Y-27.302
N15260 X87.344 Y-27.028
N15265 X87.742 Y-26.71
N15270 X88.127 Y-26.347
N15275 X88.5 Y-25.935
N15280 X88.823 Y-25.514
N15285 X89.12 Y-25.055
N15290 X89.367 Y-24.596
N15295 X89.584 Y-24.103
N15300 X89.752 Y-23.619
N15305 X89.885 Y-23.105
N15310 X89.971 Y-22.608
N15315 X90.02 Y-22.085
N15320 X89.989 Y-21.65
N15325 X89.889 Y-21.226
N15330 X89.72 Y-20.824
N15335 X89.488 Y-20.455
N15340 X89.199 Y-20.129
N15345 X88.861 Y-19.854
N15350 X88.482 Y-19.638
N15355 X88.074 Y-19.487
N15360 X87.646 Y-19.405
N15365 X84.387 Y-19.049
N15370 X84.133 Y-19.023
N15375 G3 X82.217 Y-20.697 Z-20.3 I-0.12 J-1.796
N15380 X82.236 Y-21.103 I1.796 J-0.122
N15385 G1 X83.064 Y-26.281
N15390 X83.101 Y-26.515 Z-20.317
N15395 G3 X84.926 Y-28.03 Z-20.5 I1.777 J0.284
N15400 G1 X85.464 Y-27.997
N15405 X86.003 Y-27.973
N15410 X86.542 Y-27.952
N15415 X88.158 Y-27.896
N15420 X88.629 Y-27.856
N15425 X88.966 Y-27.799
N15430 X89.315 Y-27.712
N15435 X89.683 Y-27.588
N15440 X90.07 Y-27.421
N15445 X90.458 Y-27.216
N15450 X90.846 Y-26.969
N15455 X91.237 Y-26.673
N15460 X91.588 Y-26.361
N15465 X91.928 Y-26.004
N15470 X92.225 Y-25.639
N15475 X92.505 Y-25.232
N15480 X92.74 Y-24.823
N15485 X92.952 Y-24.376
N15490 X93.119 Y-23.933
N15495 X93.256 Y-23.457
N15500 X93.351 Y-22.992
N15505 X93.41 Y-22.501
N15510 X93.417 Y-22.326
N15515 X93.401 Y-21.938
N15520 X93.323 Y-21.558
N15525 X93.185 Y-21.195
N15530 X92.991 Y-20.858
N15535 X92.745 Y-20.558
N15540 X92.454 Y-20.301
N15545 X92.125 Y-20.094
N15550 X91.767 Y-19.942
N15555 X91.39 Y-19.85
N15560 X90.852 Y-19.768
N15565 X90.313 Y-19.696
N15570 X87.646 Y-19.405
N15575 G3 X85.718 Y-21.065 Z-20.3 I-0.133 J-1.795
N15580 X85.728 Y-21.435 I1.795 J-0.134
N15585 G1 X86.343 Y-26.098
N15590 X86.374 Y-26.331 Z-20.317
N15595 G3 X88.158 Y-27.896 Z-20.5 I1.785 J0.235
N15600 G1 X89.774 Y-27.839
N15605 X90.852 Y-27.808
N15610 X91.39 Y-27.82
N15615 X91.687 Y-27.829
N15620 X91.884 Y-27.826
N15625 X92.191 Y-27.796
N15630 X92.512 Y-27.738
N15635 X92.856 Y-27.647
N15640 X93.217 Y-27.52
N15645 X93.582 Y-27.357
N15650 X93.952 Y-27.154
N15655 X94.332 Y-26.906
N15660 X94.689 Y-26.629
N15665 X95.034 Y-26.313
N15670 X95.344 Y-25.98
N15675 X95.634 Y-25.613
N15680 X95.887 Y-25.235
N15685 X96.115 Y-24.827
N15690 X96.304 Y-24.413
N15695 X96.463 Y-23.974
N15700 X96.583 Y-23.535
N15705 X96.67 Y-23.077
N15710 X96.673 Y-23.054
N15715 X96.682 Y-22.641
N15720 X96.622 Y-22.231
N15725 X96.494 Y-21.838
N15730 X96.302 Y-21.472
N15735 X96.051 Y-21.143
N15740 X95.748 Y-20.862
N15745 X95.403 Y-20.635
N15750 X95.024 Y-20.469
N15755 X94.622 Y-20.369
N15760 X91.39 Y-19.85
N15765 G3 X89.394 Y-21.427 Z-20.3 I-0.209 J-1.788
N15770 X89.399 Y-21.891 I1.788 J-0.21
N15775 G1 X89.973 Y-25.916
N15780 X90.026 Y-26.287 Z-20.327
N15785 G3 X91.687 Y-27.829 Z-20.5 I1.782 J0.254
N15790 G1 X91.929 Y-27.837
N15795 X92.468 Y-27.857
N15800 X94.919 Y-27.955
N15805 X95.172 Y-27.952
N15810 X95.473 Y-27.925
N15815 X95.798 Y-27.869
N15820 X96.145 Y-27.78
N15825 X96.499 Y-27.658
N15830 X96.86 Y-27.5
N15835 X97.233 Y-27.3
N15840 X97.575 Y-27.079
N15845 X97.918 Y-26.817
N15850 X98.227 Y-26.539
N15855 X98.524 Y-26.225
N15860 X98.789 Y-25.894
N15865 X99.032 Y-25.536
N15870 X99.246 Y-25.16
N15875 X99.428 Y-24.768
N15880 X99.581 Y-24.356
N15885 X99.698 Y-23.941
N15890 X99.736 Y-23.747
N15895 X99.782 Y-23.33
N15900 X99.754 Y-22.912
N15905 X99.655 Y-22.504
N15910 X99.487 Y-22.12
N15915 X99.256 Y-21.77
N15920 X98.967 Y-21.466
N15925 X98.631 Y-21.216
N15930 X98.256 Y-21.028
N15935 X97.855 Y-20.907
N15940 X97.316 Y-20.804
N15945 X96.738 Y-20.709
N15950 X94.622 Y-20.369
N15955 G3 X92.613 Y-21.93 Z-20.3 I-0.223 J-1.786
N15960 X92.623 Y-22.445 I1.786 J-0.225
N15965 G1 X93.208 Y-26.031
N15970 X93.277 Y-26.45 Z-20.33
N15975 G3 X94.919 Y-27.955 Z-20.5 I1.776 J0.29
N15980 G1 X95.7 Y-27.986
N15985 X96.777 Y-28.038
N15990 X97.316 Y-28.095
N15995 X97.855 Y-28.155
N16000 X98.099 Y-28.171
N16005 X98.383 Y-28.166
N16010 X98.685 Y-28.137
N16015 X99. Y-28.081
N16020 X99.335 Y-27.993
N16025 X99.685 Y-27.87
N16030 X100.031 Y-27.716
N16035 X100.371 Y-27.531
N16040 X100.708 Y-27.311
N16045 X101.016 Y-27.072
N16050 X101.321 Y-26.794
N16055 X101.592 Y-26.504
N16060 X101.852 Y-26.176
N16065 X102.078 Y-25.838
N16070 X102.282 Y-25.473
N16075 X102.456 Y-25.094
N16080 X102.599 Y-24.702
N16085 X102.712 Y-24.29
N16090 X102.754 Y-23.888
N16095 X102.726 Y-23.485
N16100 X102.629 Y-23.093
N16105 X102.466 Y-22.723
N16110 X102.243 Y-22.387
N16115 X101.965 Y-22.093
N16120 X101.641 Y-21.852
N16125 X101.281 Y-21.67
N16130 X100.894 Y-21.552
N16135 X98.393 Y-21.019
N16140 X97.855 Y-20.907
N16145 G3 X95.801 Y-22.41 Z-20.3 I-0.275 J-1.779
N16150 X95.799 Y-22.947 I1.779 J-0.276
N16155 G1 X96.264 Y-26.113
N16160 X96.341 Y-26.637 Z-20.337
N16165 G3 X97.855 Y-28.155 Z-20.5 I1.781 J0.262
N16170 G1 X100.845 Y-28.499
N16175 X101.119 Y-28.516
N16180 X101.403 Y-28.512
N16185 X101.703 Y-28.483
N16190 X102.017 Y-28.427
N16195 X102.352 Y-28.339
N16200 X102.698 Y-28.217
N16205 X103.032 Y-28.069
N16210 X103.36 Y-27.891
N16215 X103.677 Y-27.684
N16220 X103.973 Y-27.455
N16225 X104.263 Y-27.19
N16230 X104.521 Y-26.914
N16235 X104.771 Y-26.599
N16240 X104.986 Y-26.278
N16245 X105.184 Y-25.924
N16250 X105.35 Y-25.563
N16255 X105.489 Y-25.182
N16260 X105.521 Y-25.066
N16265 X105.596 Y-24.653
N16270 X105.595 Y-24.234
N16275 X105.52 Y-23.821
N16280 X105.372 Y-23.429
N16285 X105.156 Y-23.069
N16290 X104.879 Y-22.754
N16295 X104.55 Y-22.494
N16300 X104.18 Y-22.297
N16305 X103.78 Y-22.169
N16310 X103.242 Y-22.052
N16315 X100.894 Y-21.552
N16320 G3 X99.875 Y-21.684 Z-20.426 I-0.299 J-1.693
N16325 X98.503 Y-22.793 Z-20.3 I1.504 J-3.263
N16330 X98.486 Y-27.077 I2.876 J-2.153
N16335 X100.845 Y-28.499 Z-20.5 I2.892 J2.131
N16340 G1 X101.087 Y-28.526
N16345 X101.626 Y-28.59
N16350 X102.164 Y-28.658
N16355 X102.703 Y-28.732
N16360 X103.538 Y-28.889
N16365 X103.807 Y-28.926
N16370 X104.064 Y-28.94
N16375 X104.348 Y-28.933
N16380 X104.649 Y-28.902
N16385 X104.962 Y-28.843
N16390 X105.291 Y-28.754
N16395 X105.61 Y-28.639
N16400 X105.94 Y-28.489
N16405 X106.252 Y-28.316
N16410 X106.553 Y-28.116
N16415 X106.846 Y-27.885
N16420 X107.112 Y-27.639
N16425 X107.155 Y-27.592
N16430 X107.395 Y-27.299
N16435 X107.599 Y-26.98
N16440 X107.766 Y-26.64
N16445 G3 X107.081 Y-26.035 I-0.456 J0.174
N16450 G1 X103.416 Y-27.982
N16455 G3 X103.538 Y-28.889 I0.229 J-0.431
N16460 G1 X104.319 Y-29.038
N16465 X104.858 Y-29.141
N16470 X105.397 Y-29.23
N16475 X105.666 Y-29.227
N16480 X105.935 Y-29.183
N16485 X106.205 Y-29.096
N16490 X106.474 Y-28.956
N16495 X106.694 Y-28.792
N16500 X106.875 Y-28.611
N16505 X107.013 Y-28.43
N16510 X107.117 Y-28.253
N16515 X107.325 Y-27.715
N16520 X107.551 Y-27.149
N16525 X107.767 Y-26.637
N16530 X107.996 Y-26.098
N16535 X108.185 Y-25.58
N16540 X108.254 Y-25.206
N16545 X108.257 Y-24.825
N16550 X108.193 Y-24.449
N16555 X108.064 Y-24.091
N16560 X107.875 Y-23.76
N16565 X107.631 Y-23.467
N16570 X107.339 Y-23.222
N16575 X107.009 Y-23.032
N16580 X106.651 Y-22.902
N16585 G3 X105.051 Y-23.04 Z-20.384 I-0.585 J-2.552
N16590 X104.119 Y-23.764 Z-20.3 I0.882 J-2.097
N16595 X105.69 Y-27.4 I1.814 J-1.374
N16600 X107.996 Y-26.098 Z-20.5 I0.243 J2.262
N16605 G1 X108.224 Y-25.559
N16610 X108.328 Y-25.29
N16615 X108.389 Y-25.02
N16620 X108.408 Y-24.751
N16625 X108.387 Y-24.481
N16630 X108.324 Y-24.212
N16635 X108.213 Y-23.942
N16640 X108.09 Y-23.736
N16645 X107.96 Y-23.57
N16650 X107.794 Y-23.403
N16655 X107.551 Y-23.224
N16660 X107.282 Y-23.085
N16665 X107.013 Y-22.998
N16670 X104.858 Y-22.424
N16675 X104.484 Y-22.326
N16680 X103.78 Y-22.169
N16685 G3 X103.002 Y-22.2 I-0.32 J-1.771
N16690 G1 X102.841 Y-22.242 Z-20.492
N16695 X102.682 Y-22.284 Z-20.469
N16700 X102.526 Y-22.325 Z-20.431
N16705 X102.373 Y-22.365 Z-20.378
N16710 X102.226 Y-22.404 Z-20.311
N16715 X102.086 Y-22.441 Z-20.23
N16720 X101.953 Y-22.476 Z-20.136
N16725 X101.829 Y-22.508 Z-20.03
N16730 X101.715 Y-22.538 Z-19.913
N16735 X101.613 Y-22.565 Z-19.785
N16740 X101.522 Y-22.589 Z-19.648
N16745 X101.444 Y-22.61 Z-19.502
N16750 X101.379 Y-22.627 Z-19.35
N16755 X101.328 Y-22.64 Z-19.193
N16760 X101.291 Y-22.65 Z-19.031
N16765 X101.269 Y-22.656 Z-18.866
N16770 X101.261 Y-22.658 Z-18.7
N16775 G0 Z15.

(2D Adaptive7)
N16780 G1 X32.546 Y-33.109 F5000.
N16785 G0 Z15.
N16790 Z5.
N16795 Z2.5
N16800 G3 X25.897 Y-38.713 Z2.138 I-1.546 J-4.912 F573.33
N16805 X33.789 Y-42.339 Z1.777 I5.097 J0.691
N16810 X33.711 Y-33.666 Z1.415 I-2.792 J4.312
N16815 X25.905 Y-37.423 Z1.054 I-2.711 J-4.356
N16820 X32.62 Y-42.881 Z0.692 I5.089 J-0.598
N16825 X34.697 Y-34.492 Z0.331 I-1.623 J4.854
N16830 X26.233 Y-36.18 Z-0.031 I-3.697 J-3.531
N16835 X31.357 Y-43.113 Z-0.392 I4.762 J-1.84
N16840 X35.444 Y-35.534 Z-0.754 I-0.362 J5.086
N16845 X26.857 Y-35.063 Z-1.115 I-4.443 J-2.489
N16850 X30.081 Y-43.023 Z-1.477 I4.138 J-2.957
N16855 X35.906 Y-36.725 Z-1.838 I0.913 J4.997
N16860 X27.738 Y-34.139 Z-2.2 I-4.905 J-1.299
N16865 X28.873 Y-42.621 Z-2.562 I3.259 J-3.88
N16870 X36.055 Y-37.989 Z-2.923 I2.121 J4.595
N16875 X28.816 Y-33.467 Z-3.285 I-5.055 J-0.036
N16880 X27.806 Y-41.932 Z-3.646 I2.182 J-4.553
N16885 X35.886 Y-39.246 Z-4.008 I3.187 J3.907
N16890 X30.024 Y-33.086 Z-4.369 I-4.886 J1.22
N16895 X26.949 Y-41.002 Z-4.731 I0.975 J-4.934
N16900 X35.411 Y-40.416 Z-5.092 I4.045 J2.979
N16905 X31.283 Y-33.018 Z-5.454 I-4.412 J2.389
N16910 X26.352 Y-39.893 Z-5.815 I-0.284 J-5.003
N16915 X34.662 Y-41.427 Z-6.177 I4.642 J1.87
N16920 X32.515 Y-33.265 Z-6.538 I-3.664 J3.4
N16925 X26.051 Y-38.674 Z-6.9 I-1.515 J-4.756
N16930 X33.688 Y-42.217 Z-7.262 I4.943 J0.652
N16935 X33.643 Y-33.809 Z-7.623 I-2.691 J4.19
N16940 X26.064 Y-37.424 Z-7.985 I-2.642 J-4.213
N16945 X32.553 Y-42.737 Z-8.346 I4.931 J-0.597
N16950 X34.596 Y-34.614 Z-8.708 I-1.556 J4.71
N16955 X26.386 Y-36.221 Z-9.069 I-3.595 J-3.409
N16960 X31.328 Y-42.957 Z-9.431 I4.609 J-1.8
N16965 X35.315 Y-35.627 Z-9.792 I-0.333 J4.93
N16970 X26.996 Y-35.14 Z-10.154 I-4.314 J-2.397
N16975 X30.092 Y-42.865 Z-10.515 I4. J-2.88
N16980 X35.758 Y-36.783 Z-10.877 I0.902 J4.839
N16985 X27.853 Y-34.249 Z-11.238 I-4.757 J-1.242
N16990 X28.923 Y-42.47 Z-11.6 I3.144 J-3.771
N16995 X35.898 Y-38.008 Z-11.962 I2.071 J4.445
N17000 X28.9 Y-33.601 Z-12.323 I-4.897 J-0.018
N17005 X27.893 Y-41.798 Z-12.685 I2.098 J-4.418
N17010 X35.729 Y-39.224 Z-13.046 I3.101 J3.774
N17015 X30.071 Y-33.237 Z-13.408 I-4.729 J1.198
N17020 X27.065 Y-40.895 Z-13.769 I0.927 J-4.783
N17025 X35.264 Y-40.356 Z-14.131 I3.928 J2.871
N17030 X31.292 Y-33.176 Z-14.492 I-4.265 J2.329
N17035 X26.492 Y-39.818 Z-14.854 I-0.292 J-4.844
N17040 X34.534 Y-41.332 Z-15.215 I4.502 J1.795
N17045 X32.484 Y-33.42 Z-15.577 I-3.536 J3.305
N17050 X26.205 Y-38.636 Z-15.938 I-1.484 J-4.601
N17055 X33.588 Y-42.093 Z-16.3 I4.789 J0.615
N17060 X33.574 Y-33.952 Z-16.662 I-2.591 J4.066
N17065 X26.222 Y-37.426 Z-17.023 I-2.573 J-4.07
N17070 X32.487 Y-42.592 Z-17.385 I4.772 J-0.595
N17075 X34.493 Y-34.735 Z-17.746 I-1.491 J4.565
N17080 X26.539 Y-36.262 Z-18.108 I-3.492 J-3.288
N17085 X31.301 Y-42.801 Z-18.469 I4.456 J-1.758
N17090 X35.185 Y-35.718 Z-18.831 I-0.305 J4.774
N17095 X27.134 Y-35.218 Z-19.192 I-4.184 J-2.305
N17100 X30.105 Y-42.707 Z-19.554 I3.862 J-2.802
N17105 X35.609 Y-36.839 Z-19.915 I0.89 J4.681
N17110 X27.967 Y-34.359 Z-20.277 I-4.608 J-1.185
N17115 X28.974 Y-42.32 Z-20.638 I3.03 J-3.661
N17120 X35.74 Y-38.025 Z-21. I2.02 J4.294
N17125 X26.248 I-4.746 J0.
N17130 X35.74 I4.746 J0.
N17135 G1 X35.743 Y-37.641 F1720.
N17140 X35.883 Y-36.259
N17145 X35.897 Y-35.798
N17150 X35.847 Y-35.339
N17155 X35.733 Y-34.892
N17160 X35.558 Y-34.465
N17165 X35.325 Y-34.067
N17170 X35.039 Y-33.705
N17175 X34.705 Y-33.387
N17180 X34.459 Y-33.182
N17185 X34.179 Y-32.983
N17190 X33.919 Y-32.846
N17195 X33.379 Y-32.584
N17200 X32.839 Y-32.358
N17205 X32.112 Y-32.093
N17210 X31.759 Y-31.962
N17215 X31.489 Y-31.868
N17220 X31.219 Y-31.813
N17225 X30.949 Y-31.8
N17230 X30.679 Y-31.828
N17235 X30.409 Y-31.898
N17240 X30.139 Y-32.
N17245 X29.888 Y-32.093
N17250 X29.6 Y-32.198
N17255 X29.06 Y-32.416
N17260 X28.52 Y-32.642
N17265 X27.98 Y-32.892
N17270 X27.563 Y-33.168
N17275 X27.44 Y-33.26
N17280 X26.91 Y-33.705
N17285 X26.393 Y-34.243
N17290 X26.36 Y-34.284
N17295 X26.013 Y-34.78
N17300 X25.704 Y-35.318
N17305 X25.468 Y-35.855
N17310 X25.28 Y-36.372
N17315 X25.275 Y-36.393
N17320 X25.152 Y-36.93
N17325 X25.077 Y-37.468
N17330 X25.039 Y-38.005
N17335 X25.098 Y-38.543
N17340 X25.17 Y-39.08
N17345 X25.258 Y-39.618
N17350 X25.28 Y-39.693
N17355 X25.448 Y-40.155
N17360 X25.685 Y-40.693
N17365 X25.82 Y-40.939
N17370 X25.981 Y-41.23
N17375 X26.36 Y-41.752
N17380 X26.373 Y-41.768
N17385 X26.9 Y-42.332
N17390 X27.44 Y-42.786
N17395 X27.511 Y-42.843
N17400 X27.98 Y-43.155
N17405 X28.427 Y-43.38
N17410 X28.52 Y-43.424
N17415 X29.06 Y-43.647
N17420 X29.6 Y-43.806
N17425 X30.139 Y-43.903
N17430 X30.242 Y-43.918
N17435 X30.679 Y-43.964
N17440 X31.219 Y-43.967
N17445 X31.759 Y-43.918
N17450 X32.299 Y-43.833
N17455 X32.839 Y-43.681
N17460 X33.109 Y-43.593
N17465 X33.379 Y-43.463
N17470 X33.919 Y-43.185
N17475 X34.459 Y-42.868
N17480 X34.493 Y-42.843
N17485 X34.999 Y-42.419
N17490 X35.118 Y-42.305
N17495 X35.538 Y-41.872
N17500 X35.619 Y-41.768
N17505 X36.019 Y-41.23
N17510 X36.327 Y-40.693
N17515 X36.551 Y-40.155
N17520 X36.618 Y-39.973
N17525 X36.742 Y-39.618
N17530 X36.83 Y-39.08
N17535 X36.902 Y-38.543
N17540 X36.961 Y-38.005
N17545 X36.923 Y-37.468
N17550 X36.848 Y-36.93
N17555 X36.725 Y-36.393
N17560 X36.618 Y-36.077
N17565 X36.533 Y-35.855
N17570 X36.294 Y-35.318
N17575 X35.987 Y-34.78
N17580 X35.587 Y-34.243
N17585 X35.538 Y-34.182
N17590 X35.079 Y-33.705
N17595 X34.999 Y-33.63
N17600 X34.705 Y-33.387
N17605 G3 X34. Y-33.056 I-1.1 J-1.425
N17610 G1 X33.838 Y-33.019 Z-20.992
N17615 X33.678 Y-32.983 Z-20.969
N17620 X33.52 Y-32.948 Z-20.931
N17625 X33.366 Y-32.913 Z-20.878
N17630 X33.217 Y-32.88 Z-20.811
N17635 X33.076 Y-32.848 Z-20.73
N17640 X32.942 Y-32.818 Z-20.636
N17645 X32.817 Y-32.79 Z-20.53
N17650 X32.702 Y-32.764 Z-20.413
N17655 X32.599 Y-32.741 Z-20.285
N17660 X32.507 Y-32.72 Z-20.148
N17665 X32.428 Y-32.702 Z-20.002
N17670 X32.363 Y-32.688 Z-19.85
N17675 X32.311 Y-32.676 Z-19.693
N17680 X32.274 Y-32.668 Z-19.531
N17685 X32.251 Y-32.663 Z-19.366
N17690 X32.244 Y-32.661 Z-19.2
N17695 G0 Z15.
N17700 M9
N17705 M5
N17710 G53 G0 Z0.

(2D Adaptive8)
N17715 M1
N17720 T5 M6
N17725 S4800 M3
N17730 G17 G90 G94
N17735 G54
N17740 M8
N17745 G1 X138.844 Y-34.868 F5000.
N17750 G0 G43 Z15. H5
N17755 T6
N17760 G0 Z5.
N17765 Z2.5
N17770 G3 X131.841 Y-36.985 Z2.195 I-2.843 J-3.236 F573.33
N17775 X136.831 Y-42.323 Z1.89 I4.155 J-1.117
N17780 X139.408 Y-35.495 Z1.584 I-0.835 J4.215
N17785 X132.154 Y-36.203 Z1.279 I-3.407 J-2.61
N17790 X135.993 Y-42.388 Z0.974 I3.843 J-1.899
N17795 X139.837 Y-36.217 Z0.669 I0.004 J4.281
N17800 X132.611 Y-35.499 Z0.364 I-3.836 J-1.888
N17805 X135.16 Y-42.289 Z0.058 I3.386 J-2.602
N17810 X140.116 Y-37.006 Z-0.247 I0.835 J4.182
N17815 X133.195 Y-34.901 Z-0.552 I-4.115 J-1.099
N17820 X134.366 Y-42.031 Z-0.857 I2.802 J-3.201
N17825 X140.235 Y-37.832 Z-1.162 I1.629 J3.924
N17830 X133.882 Y-34.43 Z-1.468 I-4.235 J-0.274
N17835 X133.641 Y-41.624 Z-1.773 I2.116 J-3.672
N17840 X140.191 Y-38.661 Z-2.078 I2.354 J3.518
N17845 X134.644 Y-34.102 Z-2.383 I-4.191 J0.555
N17850 X133.011 Y-41.085 Z-2.688 I1.354 J-3.999
N17855 X139.987 Y-39.464 Z-2.994 I2.984 J2.98
N17860 X135.453 Y-33.931 Z-3.299 I-3.987 J1.357
N17865 X132.5 Y-40.436 Z-3.604 I0.546 J-4.171
N17870 X139.631 Y-40.208 Z-3.909 I3.495 J2.332
N17875 X136.276 Y-33.921 Z-4.214 I-3.632 J2.1
N17880 X132.127 Y-39.703 Z-4.519 I-0.277 J-4.181
N17885 X139.139 Y-40.865 Z-4.825 I3.867 J1.599
N17890 X137.083 Y-34.071 Z-5.13 I-3.141 J2.758
N17895 X131.906 Y-38.914 Z-5.435 I-1.083 J-4.031
N17900 X138.531 Y-41.412 Z-5.74 I4.089 J0.811
N17905 X137.842 Y-34.375 Z-6.045 I-2.533 J3.305
N17910 X131.842 Y-38.101 Z-6.351 I-1.841 J-3.728
N17915 X137.83 Y-41.829 Z-6.656 I4.153 J-0.002
N17920 X138.524 Y-34.819 Z-6.961 I-1.832 J3.721
N17925 X131.938 Y-37.293 Z-7.266 I-2.523 J-3.285
N17930 X137.064 Y-42.099 Z-7.571 I4.057 J-0.809
N17935 X139.105 Y-35.385 Z-7.877 I-1.067 J3.991
N17940 X132.189 Y-36.523 Z-8.182 I-3.104 J-2.719
N17945 X136.264 Y-42.214 Z-8.487 I3.807 J-1.579
N17950 X139.562 Y-36.051 Z-8.792 I-0.267 J4.107
N17955 X132.584 Y-35.82 Z-9.097 I-3.561 J-2.054
N17960 X135.459 Y-42.171 Z-9.403 I3.412 J-2.282
N17965 X139.879 Y-36.791 Z-9.708 I0.537 J4.064
N17970 X133.107 Y-35.209 Z-10.013 I-3.878 J-1.314
N17975 X134.681 Y-41.973 Z-10.318 I2.89 J-2.893
N17980 X140.044 Y-37.575 Z-10.623 I1.314 J3.866
N17985 X133.736 Y-34.714 Z-10.929 I-4.044 J-0.531
N17990 X133.96 Y-41.628 Z-11.234 I2.262 J-3.388
N17995 X140.054 Y-38.374 Z-11.539 I2.035 J3.522
N18000 X134.447 Y-34.353 Z-11.844 I-4.054 J0.267
N18005 X133.322 Y-41.151 Z-12.149 I1.551 J-3.749
N18010 X139.908 Y-39.156 Z-12.455 I2.673 J3.045
N18015 X135.212 Y-34.138 Z-12.76 I-3.908 J1.049
N18020 X132.792 Y-40.561 Z-13.065 I0.787 J-3.964
N18025 X139.614 Y-39.891 Z-13.37 I3.203 J2.456
N18030 X136.001 Y-34.077 Z-13.675 I-3.614 J1.784
N18035 X132.389 Y-39.881 Z-13.981 I-0.001 J-4.025
N18040 X139.183 Y-40.552 Z-14.286 I3.606 J1.777
N18045 X136.783 Y-34.17 Z-14.591 I-3.184 J2.445
N18050 X132.127 Y-39.139 Z-14.896 I-0.783 J-3.932
N18055 X138.634 Y-41.115 Z-15.201 I3.868 J1.035
N18060 X137.529 Y-34.414 Z-15.506 I-2.636 J3.007
N18065 X132.016 Y-38.363 Z-15.812 I-1.529 J-3.689
N18070 X137.988 Y-41.557 Z-16.117 I3.979 J0.26
N18075 X138.211 Y-34.797 Z-16.422 I-1.991 J3.449
N18080 X132.058 Y-37.584 Z-16.727 I-2.21 J-3.307
N18085 X137.272 Y-41.864 Z-17.032 I3.938 J-0.519
N18090 X138.802 Y-35.303 Z-17.338 I-1.274 J3.756
N18095 X132.25 Y-36.83 Z-17.643 I-2.801 J-2.801
N18100 X136.512 Y-42.024 Z-17.948 I3.746 J-1.272
N18105 X139.282 Y-35.913 Z-18.253 I-0.515 J3.917
N18110 X132.584 Y-36.132 Z-18.558 I-3.281 J-2.192
N18115 X135.738 Y-42.033 Z-18.864 I3.412 J-1.97
N18120 X139.631 Y-36.602 Z-19.169 I0.258 J3.926
N18125 X133.047 Y-35.514 Z-19.474 I-3.63 J-1.503
N18130 X134.981 Y-41.892 Z-19.779 I2.95 J-2.587
N18135 X139.839 Y-37.342 Z-20.084 I1.014 J3.785
N18140 X133.619 Y-35.001 Z-20.39 I-3.838 J-0.763
N18145 X134.269 Y-41.606 Z-20.695 I2.379 J-3.1
N18150 X139.898 Y-38.106 Z-21. I1.726 J3.5
N18155 X132.092 I-3.903 J0.
N18160 X139.898 I3.903 J0.
N18165 G1 X139.903 Y-37.82 F1720.
N18170 X140.063 Y-36.685
N18175 X140.165 Y-36.403
N18180 X140.211 Y-36.107
N18185 X140.202 Y-35.807
N18190 X140.137 Y-35.515
N18195 X140.019 Y-35.239
N18200 X139.851 Y-34.991
N18205 X139.581 Y-34.662
N18210 X139.558 Y-34.635
N18215 X139.258 Y-34.372
N18220 X138.88 Y-34.062
N18225 X138.769 Y-33.977
N18230 X138.659 Y-33.91
N18235 X138.059 Y-33.59
N18240 X137.909 Y-33.515
N18245 X137.755 Y-33.462
N18250 X137.16 Y-33.281
N18255 X137.01 Y-33.238
N18260 X136.86 Y-33.213
N18265 X136.26 Y-33.154
N18270 X135.96 Y-33.134
N18275 X135.66 Y-33.162
N18280 X135.361 Y-33.191
N18285 X135.061 Y-33.223
N18290 X134.761 Y-33.305
N18295 X134.162 Y-33.487
N18300 X133.862 Y-33.632
N18305 X133.562 Y-33.792
N18310 X133.262 Y-33.956
N18315 X133.12 Y-34.062
N18320 X132.541 Y-34.537
N18325 X132.419 Y-34.662
N18330 X131.927 Y-35.262
N18335 X131.835 Y-35.393
N18340 X131.744 Y-35.562
N18345 X131.464 Y-36.086
N18350 X131.425 Y-36.161
N18355 X131.323 Y-36.461
N18360 X131.142 Y-37.061
N18365 X131.097 Y-37.361
N18370 X131.038 Y-37.961
N18375 X131.029 Y-38.111
N18380 X131.04 Y-38.261
N18385 X131.099 Y-38.861
N18390 X131.114 Y-39.011
N18395 X131.146 Y-39.161
N18400 X131.328 Y-39.761
N18405 X131.432 Y-40.061
N18410 X131.464 Y-40.122
N18415 X131.763 Y-40.683
N18420 X131.839 Y-40.822
N18425 X131.939 Y-40.961
N18430 X132.432 Y-41.561
N18435 X132.663 Y-41.771
N18440 X133.138 Y-42.161
N18445 X133.262 Y-42.253
N18450 X133.562 Y-42.416
N18455 X133.862 Y-42.576
N18460 X134.162 Y-42.72
N18465 X134.761 Y-42.903
N18470 X135.061 Y-42.985
N18475 X135.361 Y-43.017
N18480 X135.811 Y-43.061
N18485 X135.96 Y-43.074
N18490 X136.189 Y-43.061
N18495 X136.86 Y-42.995
N18500 X137.01 Y-42.97
N18505 X137.16 Y-42.927
N18510 X137.759 Y-42.745
N18515 X137.909 Y-42.693
N18520 X138.059 Y-42.618
N18525 X138.659 Y-42.298
N18530 X138.76 Y-42.238
N18535 X138.862 Y-42.161
N18540 X139.258 Y-41.836
N18545 X139.558 Y-41.572
N18550 X139.568 Y-41.561
N18555 X140.061 Y-40.961
N18560 X140.157 Y-40.827
N18565 X140.248 Y-40.661
N18570 X140.457 Y-40.27
N18575 X140.568 Y-40.061
N18580 X140.672 Y-39.761
N18585 X140.854 Y-39.161
N18590 X140.886 Y-39.011
N18595 X140.901 Y-38.861
N18600 X140.96 Y-38.261
N18605 X140.971 Y-38.111
N18610 X140.962 Y-37.961
N18615 X140.903 Y-37.361
N18620 X140.858 Y-37.061
N18625 X140.677 Y-36.461
N18630 X140.575 Y-36.161
N18635 X140.416 Y-35.861
N18640 X140.256 Y-35.562
N18645 X140.157 Y-35.381
N18650 X140.073 Y-35.262
N18655 X139.851 Y-34.991
N18660 G3 X139.164 Y-34.654 I-0.75 J-0.661
N18665 G1 X139.044 Y-34.646 Z-20.993
N18670 X138.925 Y-34.639 Z-20.971
N18675 X138.81 Y-34.632 Z-20.935
N18680 X138.7 Y-34.625 Z-20.885
N18685 X138.597 Y-34.618 Z-20.823
N18690 X138.502 Y-34.612 Z-20.749
N18695 X138.417 Y-34.607 Z-20.663
N18700 X138.343 Y-34.602 Z-20.568
N18705 X138.28 Y-34.598 Z-20.465
N18710 X138.231 Y-34.595 Z-20.355
N18715 X138.195 Y-34.593 Z-20.239
N18720 X138.173 Y-34.591 Z-20.121
N18725 X138.166 Z-20.
N18730 G0 Z15.
N18735 M9
N18740 M5
N18745 G53 G0 Z0.

(2D Adaptive9)
N18750 M1
N18755 T6 M6
N18760 S5000 M3
N18765 G17 G90 G94
N18770 G54
N18775 M8
N18780 G1 X29.399 Y-37.71 F5000.
N18785 G0 G43 Z15. H6
N18790 T1
N18795 G0 Z2.5
N18800 G3 X31.383 Y-39.581 Z2.385 I1.548 J-0.347 F333.33
N18805 X32.076 Y-36.947 Z2.271 I-0.436 J1.523
N18810 X29.435 Y-37.599 Z2.156 I-1.127 J-1.11
N18815 X31.269 Y-39.603 Z2.041 I1.512 J-0.457
